;FLAVOR:Marlin
;TIME:1496
;Filament used: 1.00465m
;Layer height: 0.2
;MINX:92.105
;MINY:86.206
;MINZ:0.28
;MAXX:127.882
;MAXY:132.805
;MAXZ:15.48
;TARGET_MACHINE.NAME:Creality Ender-3 V3 SE
;Generated with Cura_SteamEngine 5.6.0
M140 S60
M105
M190 S60
M104 S220
M105
M109 S220
M82 ;absolute extrusion mode
M220 S100 ;Reset Feedrate
M221 S100 ;Reset Flowrate

G28 ;Home

M420 S1; Enable mesh leveling

G92 E0 ;Reset Extruder
G1 Z2.0 F3000 ;Move Z Axis up
G1 X10.1 Y20 Z0.28 F5000.0 ;Move to start position
M109 S[material_print_temperature_layer_0]
G1 X10.1 Y145.0 Z0.28 F1500.0 E15 ;Draw the first line
G1 X10.4 Y145.0 Z0.28 F5000.0 ;Move to side a little
G1 X10.4 Y20 Z0.28 F1500.0 E30 ;Draw the second line
G92 E0  ;Reset Extruder
G1 E-1.0000 F1800 ;Retract a bit
G1 Z2.0 F3000 ;Move Z Axis up
G1 E0.0000 F1800 

G92 E0
G92 E0
G1 F2400 E-0.8
;LAYER_COUNT:77
;LAYER:0
M107
G0 F9000 X99.759 Y90.89 Z0.28
;TYPE:SKIRT
G1 F2400 E0
G1 F6000 X100.053 Y90.585 E0.01973
G1 X100.669 Y90.001 E0.05925
G1 X101.312 Y89.434 E0.09917
G1 X101.656 Y89.155 E0.11979
G1 X101.999 Y88.902 E0.13964
G1 X102.677 Y88.428 E0.17816
G1 X102.976 Y88.233 E0.19478
G1 X103.424 Y87.97 E0.21897
G1 X104.023 Y87.65 E0.2506
G1 X104.359 Y87.483 E0.26807
G1 X105.04 Y87.183 E0.30272
G1 X105.462 Y87.021 E0.32377
G1 X106.004 Y86.83 E0.35052
G1 X106.438 Y86.699 E0.37163
G1 X107.014 Y86.549 E0.39935
G1 X107.413 Y86.46 E0.41839
G1 X108.038 Y86.353 E0.44791
G1 X108.666 Y86.275 E0.47738
G1 X109.165 Y86.229 E0.50071
G1 X109.509 Y86.214 E0.51675
G1 X110.216 Y86.206 E0.54967
G1 X110.596 Y86.216 E0.56737
G1 X111.092 Y86.252 E0.59053
G1 X112.018 Y86.358 E0.63393
G1 X112.821 Y86.509 E0.67197
G1 X113.684 Y86.739 E0.71356
G1 X114.107 Y86.87 E0.73418
G1 X114.711 Y87.082 E0.76399
G1 X115.214 Y87.287 E0.78928
G1 X115.821 Y87.569 E0.82044
G1 X116.433 Y87.889 E0.8526
G1 X117.217 Y88.363 E0.89526
G1 X117.741 Y88.709 E0.9245
G1 X118.124 Y88.986 E0.94651
G1 X118.843 Y89.558 E0.98929
G1 X119.247 Y89.909 E1.01421
G1 X119.623 Y90.259 E1.03813
G1 X120.203 Y90.846 E1.07656
G1 X120.913 Y91.647 E1.1264
G1 X121.458 Y92.326 E1.16694
G1 X121.998 Y93.071 E1.20979
G1 X122.459 Y93.779 E1.24913
G1 X123.145 Y94.952 E1.3124
G1 X123.431 Y95.484 E1.34052
G1 X124.008 Y96.695 E1.40299
G1 X124.373 Y97.583 E1.44769
G1 X124.897 Y99.032 E1.51944
G1 X125.187 Y99.962 E1.5648
G1 X125.546 Y101.323 E1.63034
G1 X125.738 Y102.201 E1.67219
G1 X125.876 Y102.978 E1.70894
G1 X125.936 Y103.452 E1.73119
G1 X125.983 Y104.017 E1.75759
G1 X126.252 Y106.735 E1.88477
G1 X126.587 Y109.361 E2.00804
G1 X126.996 Y111.982 E2.13156
G1 X127.503 Y114.711 E2.26081
G1 X127.719 Y115.791 E2.31209
G1 X127.812 Y116.387 E2.34018
G1 X127.867 Y116.979 E2.36786
G1 X127.882 Y117.372 E2.38618
G1 X127.877 Y117.92 E2.41169
G1 X127.849 Y118.381 E2.4332
G1 X127.725 Y119.275 E2.47523
G1 X127.647 Y119.623 E2.49183
G1 X127.502 Y120.149 E2.51724
G1 X127.24 Y120.894 E2.55401
G1 X126.67 Y122.279 E2.62375
G1 X125.7 Y124.746 E2.74719
G1 X124.241 Y128.848 E2.94992
G1 X123.988 Y129.441 E2.97994
G1 X123.618 Y130.086 E3.01456
G1 X123.109 Y130.756 E3.05374
G1 X122.657 Y131.217 E3.0838
G1 X121.996 Y131.742 E3.12311
G1 X121.404 Y132.099 E3.1553
G1 X120.772 Y132.387 E3.18764
G1 X119.963 Y132.636 E3.22705
G1 X119.241 Y132.758 E3.26115
G1 X118.697 Y132.792 E3.28653
G1 X117.826 Y132.805 E3.32709
G1 X113.727 Y132.804 E3.51796
G1 X111.818 Y132.777 E3.60686
G1 X111.164 Y132.759 E3.63732
G1 X108.525 Y132.761 E3.76021
G1 X106.679 Y132.804 E3.84619
G1 X102.084 Y132.805 E4.06015
G1 X101.264 Y132.792 E4.09834
G1 X100.621 Y132.743 E4.12836
G1 X99.792 Y132.575 E4.16775
G1 X99.092 Y132.333 E4.20224
G1 X98.511 Y132.054 E4.23225
G1 X97.841 Y131.626 E4.26927
G1 X97.235 Y131.115 E4.30618
G1 X96.795 Y130.643 E4.33623
G1 X96.328 Y130.003 E4.37312
G1 X95.972 Y129.355 E4.40755
G1 X95.737 Y128.783 E4.43634
G1 X94.551 Y125.408 E4.60292
G1 X93.604 Y122.929 E4.72649
G1 X92.844 Y121.099 E4.81875
G1 X92.569 Y120.344 E4.85617
G1 X92.418 Y119.844 E4.88049
G1 X92.337 Y119.517 E4.89618
G1 X92.225 Y118.95 E4.92309
G1 X92.167 Y118.547 E4.94205
G1 X92.113 Y117.907 E4.97195
G1 X92.105 Y117.527 E4.98965
G1 X92.135 Y116.843 E5.02153
G1 X92.179 Y116.411 E5.04175
G1 X92.252 Y115.921 E5.06482
G1 X92.771 Y113.315 E5.18855
G1 X93.218 Y110.699 E5.31213
G1 X93.594 Y108.037 E5.43731
G1 X93.891 Y105.417 E5.56009
G1 X94.069 Y103.399 E5.65442
G1 X94.129 Y102.948 E5.67561
G1 X94.235 Y102.349 E5.70393
G1 X94.439 Y101.366 E5.75068
G1 X94.622 Y100.612 E5.78681
G1 X94.917 Y99.601 E5.83585
G1 X95.227 Y98.651 E5.88238
G1 X95.398 Y98.181 E5.90567
G1 X95.85 Y97.041 E5.96277
G1 X96.075 Y96.523 E5.98907
G1 X96.546 Y95.542 E6.03974
G1 X97.034 Y94.63 E6.08791
G1 X97.396 Y94.017 E6.12106
G1 X97.567 Y93.746 E6.13598
G1 X98.186 Y92.82 E6.18784
G1 X98.602 Y92.247 E6.22081
G1 X99.027 Y91.715 E6.25252
G1 X99.759 Y90.89 E6.30388
G0 F9000 X100.047 Y91.167
G1 F6000 X100.328 Y90.875 E6.32275
G1 X100.933 Y90.301 E6.36158
G1 X101.565 Y89.744 E6.40081
G1 X101.893 Y89.477 E6.4205
G1 X102.228 Y89.23 E6.43988
G1 X102.896 Y88.763 E6.47783
G1 X103.179 Y88.578 E6.49358
G1 X103.613 Y88.323 E6.51702
G1 X104.201 Y88.008 E6.54808
G1 X104.521 Y87.849 E6.56472
G1 X105.184 Y87.556 E6.59847
G1 X105.595 Y87.398 E6.61897
G1 X106.12 Y87.213 E6.64489
G1 X106.539 Y87.086 E6.66528
G1 X107.101 Y86.939 E6.69233
G1 X107.481 Y86.854 E6.71046
G1 X108.088 Y86.75 E6.73914
G1 X108.703 Y86.673 E6.768
G1 X109.183 Y86.629 E6.79044
G1 X109.514 Y86.614 E6.80587
G1 X110.206 Y86.606 E6.83809
G1 X110.568 Y86.615 E6.85495
G1 X111.047 Y86.649 E6.87732
G1 X111.944 Y86.751 E6.91935
G1 X112.718 Y86.896 E6.95602
G1 X113.566 Y87.121 E6.99687
G1 X113.975 Y87.247 E7.0168
G1 X114.56 Y87.452 E7.04566
G1 X115.046 Y87.65 E7.0701
G1 X115.636 Y87.924 E7.10039
G1 X116.226 Y88.232 E7.13138
G1 X116.997 Y88.697 E7.17331
G1 X117.507 Y89.033 E7.20175
G1 X117.875 Y89.299 E7.22289
G1 X118.581 Y89.86 E7.26488
G1 X118.975 Y90.202 E7.28917
G1 X119.339 Y90.54 E7.3123
G1 X119.904 Y91.111 E7.34971
G1 X120.601 Y91.897 E7.39862
G1 X121.134 Y92.561 E7.43827
G1 X121.663 Y93.29 E7.48021
G1 X122.114 Y93.981 E7.51864
G1 X122.793 Y95.141 E7.58122
G1 X123.07 Y95.656 E7.60845
G1 X123.638 Y96.847 E7.66989
G1 X123.997 Y97.719 E7.7138
G1 X124.515 Y99.151 E7.78471
G1 X124.8 Y100.064 E7.82925
G1 X125.155 Y101.409 E7.89402
G1 X125.344 Y102.271 E7.93511
G1 X125.479 Y103.028 E7.97092
G1 X125.537 Y103.485 E7.99237
G1 X125.584 Y104.05 E8.01877
G1 X125.855 Y106.786 E8.14679
G1 X126.19 Y109.412 E8.27006
G1 X126.603 Y112.055 E8.39462
G1 X127.111 Y114.79 E8.52416
G1 X127.324 Y115.853 E8.57464
G1 X127.417 Y116.449 E8.60273
G1 X127.467 Y116.995 E8.62826
G1 X127.482 Y117.369 E8.64568
G1 X127.478 Y117.897 E8.67027
G1 X127.453 Y118.326 E8.69028
G1 X127.334 Y119.188 E8.7308
G1 X127.261 Y119.517 E8.74649
G1 X127.116 Y120.043 E8.7719
G1 X126.87 Y120.742 E8.8064
G1 X126.3 Y122.127 E8.87614
G1 X125.323 Y124.612 E9.00048
G1 X123.873 Y128.691 E9.20206
G1 X123.62 Y129.284 E9.23208
G1 X123.272 Y129.886 E9.26446
G1 X122.823 Y130.476 E9.29898
G1 X122.371 Y130.937 E9.32904
G1 X121.788 Y131.4 E9.36371
G1 X121.238 Y131.735 E9.39369
G1 X120.606 Y132.023 E9.42603
G1 X119.895 Y132.242 E9.46068
G1 X119.216 Y132.359 E9.49276
G1 X118.691 Y132.392 E9.51725
G1 X117.826 Y132.405 E9.55754
G1 X113.733 Y132.404 E9.74812
G1 X111.829 Y132.377 E9.83679
G1 X111.175 Y132.359 E9.86726
G1 X108.516 Y132.361 E9.99107
G1 X106.679 Y132.404 E10.07663
G1 X102.09 Y132.405 E10.29031
G1 X101.294 Y132.393 E10.32738
G1 X100.651 Y132.344 E10.35741
G1 X99.921 Y132.196 E10.3921
G1 X99.265 Y131.972 E10.42437
G1 X98.684 Y131.693 E10.45438
G1 X98.058 Y131.29 E10.48905
G1 X97.528 Y130.842 E10.52137
G1 X97.088 Y130.37 E10.55141
G1 X96.679 Y129.81 E10.5837
G1 X96.323 Y129.162 E10.61813
G1 X96.114 Y128.65 E10.64388
G1 X94.925 Y125.265 E10.81094
G1 X93.977 Y122.786 E10.93453
G1 X93.22 Y120.962 E11.02648
G1 X92.952 Y120.228 E11.06287
G1 X92.806 Y119.747 E11.08628
G1 X92.729 Y119.439 E11.10106
G1 X92.621 Y118.893 E11.12698
G1 X92.566 Y118.513 E11.14485
G1 X92.512 Y117.873 E11.17476
G1 X92.505 Y117.544 E11.19008
G1 X92.533 Y116.883 E11.22089
G1 X92.575 Y116.47 E11.24022
G1 X92.648 Y115.98 E11.26329
G1 X93.163 Y113.393 E11.38611
G1 X93.612 Y110.766 E11.51021
G1 X93.99 Y108.093 E11.63592
G1 X94.288 Y105.462 E11.75921
G1 X94.466 Y103.451 E11.85322
G1 X94.523 Y103.018 E11.87355
G1 X94.627 Y102.43 E11.90136
G1 X94.828 Y101.46 E11.94749
G1 X95.006 Y100.724 E11.98274
G1 X95.297 Y99.725 E12.0312
G1 X95.603 Y98.788 E12.07709
G1 X95.77 Y98.328 E12.09988
G1 X96.217 Y97.2 E12.15638
G1 X96.435 Y96.696 E12.18195
G1 X96.899 Y95.731 E12.23181
G1 X97.387 Y94.819 E12.27997
G1 X97.734 Y94.231 E12.31176
G1 X97.9 Y93.968 E12.32625
G1 X98.51 Y93.055 E12.37737
G1 X98.915 Y92.497 E12.40948
G1 X99.34 Y91.965 E12.44119
G1 X100.047 Y91.167 E12.49083
G0 F9000 X100.335 Y91.444
G1 F6000 X100.603 Y91.165 E12.50884
G1 X101.197 Y90.601 E12.54698
G1 X101.818 Y90.054 E12.58552
G1 X102.131 Y89.799 E12.60432
G1 X102.457 Y89.558 E12.6232
G1 X103.115 Y89.098 E12.66058
G1 X103.382 Y88.923 E12.67544
G1 X103.816 Y88.668 E12.69888
G1 X104.379 Y88.366 E12.72863
G1 X104.683 Y88.215 E12.74444
G1 X105.328 Y87.929 E12.77729
G1 X105.727 Y87.775 E12.79721
G1 X106.237 Y87.596 E12.82238
G1 X106.64 Y87.473 E12.842
G1 X107.189 Y87.329 E12.86842
G1 X107.548 Y87.248 E12.88556
G1 X108.138 Y87.147 E12.91343
G1 X108.739 Y87.071 E12.94164
G1 X109.202 Y87.029 E12.96329
G1 X109.519 Y87.014 E12.97807
G1 X110.197 Y87.006 E13.00964
G1 X110.54 Y87.014 E13.02561
G1 X111.002 Y87.046 E13.04718
G1 X111.871 Y87.144 E13.0879
G1 X112.616 Y87.283 E13.12319
G1 X113.449 Y87.503 E13.16331
G1 X113.843 Y87.624 E13.1825
G1 X114.41 Y87.823 E13.21048
G1 X114.878 Y88.013 E13.234
G1 X115.451 Y88.279 E13.26342
G1 X116.02 Y88.575 E13.29328
G1 X116.777 Y89.031 E13.33443
G1 X117.273 Y89.358 E13.36209
G1 X117.626 Y89.612 E13.38234
G1 X118.319 Y90.162 E13.42354
G1 X118.703 Y90.495 E13.44721
G1 X119.055 Y90.822 E13.46958
G1 X119.605 Y91.377 E13.50596
G1 X120.289 Y92.147 E13.55392
G1 X120.81 Y92.796 E13.59268
G1 X121.328 Y93.509 E13.63371
G1 X121.769 Y94.183 E13.67122
G1 X122.441 Y95.331 E13.73316
G1 X122.709 Y95.828 E13.75945
G1 X123.268 Y96.999 E13.81987
G1 X123.621 Y97.855 E13.86299
G1 X124.133 Y99.27 E13.93306
G1 X124.413 Y100.166 E13.97677
G1 X124.764 Y101.495 E14.04077
G1 X124.95 Y102.342 E14.08115
G1 X125.082 Y103.078 E14.11597
G1 X125.138 Y103.519 E14.13667
G1 X125.186 Y104.084 E14.16307
G1 X125.458 Y106.837 E14.29189
G1 X125.793 Y109.463 E14.41516
G1 X126.21 Y112.128 E14.54076
G1 X126.719 Y114.869 E14.67058
G1 X126.929 Y115.915 E14.72025
G1 X127.022 Y116.511 E14.74834
G1 X127.067 Y117.012 E14.77176
G1 X127.082 Y117.367 E14.78831
G1 X127.079 Y117.875 E14.81196
G1 X127.057 Y118.272 E14.83048
G1 X126.943 Y119.102 E14.86949
G1 X126.875 Y119.411 E14.88422
G1 X126.73 Y119.937 E14.90963
G1 X126.5 Y120.59 E14.94187
G1 X125.93 Y121.975 E15.01161
G1 X124.946 Y124.478 E15.13684
G1 X123.505 Y128.534 E15.33727
G1 X123.252 Y129.127 E15.36729
G1 X122.927 Y129.684 E15.39732
G1 X122.537 Y130.196 E15.42729
G1 X122.085 Y130.657 E15.45735
G1 X121.58 Y131.058 E15.48738
G1 X121.03 Y131.393 E15.51736
G1 X120.442 Y131.658 E15.5474
G1 X119.826 Y131.848 E15.57741
G1 X119.191 Y131.96 E15.60744
G1 X118.685 Y131.992 E15.63105
G1 X117.826 Y132.005 E15.67105
G1 X113.739 Y132.004 E15.86136
G1 X111.84 Y131.977 E15.94979
G1 X111.186 Y131.959 E15.98026
G1 X108.507 Y131.961 E16.105
G1 X106.679 Y132.004 E16.19014
G1 X102.096 Y132.005 E16.40355
G1 X101.324 Y131.994 E16.4395
G1 X100.681 Y131.945 E16.46953
G1 X100.049 Y131.817 E16.49955
G1 X99.438 Y131.611 E16.52958
G1 X98.857 Y131.332 E16.55959
G1 X98.315 Y130.983 E16.58961
G1 X97.821 Y130.569 E16.61962
G1 X97.381 Y130.097 E16.64966
G1 X97.003 Y129.575 E16.67967
G1 X96.693 Y129.01 E16.70968
G1 X96.491 Y128.517 E16.73449
G1 X95.299 Y125.122 E16.90204
G1 X94.35 Y122.643 E17.02564
G1 X93.596 Y120.825 E17.11729
G1 X93.335 Y120.111 E17.15268
G1 X93.194 Y119.649 E17.17518
G1 X93.121 Y119.361 E17.18901
G1 X93.017 Y118.835 E17.21398
G1 X92.965 Y118.479 E17.23073
G1 X92.911 Y117.839 E17.26064
G1 X92.905 Y117.56 E17.27363
G1 X92.931 Y116.923 E17.30332
G1 X92.971 Y116.529 E17.32176
G1 X93.044 Y116.039 E17.34483
G1 X93.555 Y113.471 E17.46675
G1 X94.006 Y110.833 E17.59137
G1 X94.386 Y108.149 E17.71759
G1 X94.685 Y105.507 E17.8414
G1 X94.863 Y103.503 E17.93508
G1 X94.917 Y103.088 E17.95457
G1 X95.019 Y102.511 E17.98185
G1 X95.217 Y101.554 E18.02736
G1 X95.39 Y100.836 E18.06175
G1 X95.677 Y99.849 E18.10961
G1 X95.979 Y98.924 E18.15492
G1 X96.142 Y98.475 E18.17716
G1 X96.584 Y97.359 E18.23305
G1 X96.796 Y96.869 E18.25792
G1 X97.252 Y95.92 E18.30694
G1 X97.732 Y95.022 E18.35435
G1 X98.072 Y94.444 E18.38558
G1 X98.232 Y94.19 E18.39956
G1 X98.834 Y93.29 E18.44998
G1 X99.228 Y92.746 E18.48125
G1 X99.639 Y92.23 E18.51197
G1 X100.335 Y91.444 E18.56086
G1 F2400 E17.76086
G0 F9000 X104.336 Y95.054
G1 F2400 E18.56086
G1 F6000 X104.608 Y94.783 E18.57874
G1 X104.987 Y94.432 E18.60279
G1 X105.224 Y94.229 E18.61732
G1 X105.719 Y93.844 E18.64652
G1 X106.201 Y93.519 E18.67359
G1 X106.737 Y93.211 E18.70238
G1 X107.296 Y92.948 E18.73114
G1 X107.877 Y92.73 E18.76004
G1 X108.167 Y92.639 E18.77419
G1 X108.447 Y92.569 E18.78763
G1 X108.813 Y92.493 E18.80504
G1 X109.071 Y92.456 E18.81717
G1 X109.448 Y92.415 E18.83483
G1 X109.702 Y92.399 E18.84668
G1 X110.269 Y92.398 E18.87308
G1 X110.829 Y92.44 E18.89923
G1 X111.152 Y92.485 E18.91442
G1 X111.73 Y92.613 E18.94198
G1 X112.057 Y92.708 E18.95784
G1 X112.625 Y92.91 E18.98591
G1 X112.995 Y93.079 E19.00485
G1 X113.27 Y93.214 E19.01912
G1 X113.942 Y93.61 E19.05544
G1 X114.271 Y93.833 E19.07394
G1 X114.567 Y94.058 E19.09126
G1 X114.919 Y94.345 E19.1124
G1 X115.273 Y94.666 E19.13466
G1 X115.622 Y95.013 E19.15757
G1 X115.996 Y95.422 E19.18338
G1 X116.353 Y95.847 E19.20922
G1 X116.718 Y96.329 E19.23738
G1 X117.114 Y96.904 E19.26989
G1 X117.453 Y97.455 E19.30001
G1 X117.825 Y98.123 E19.33561
G1 X118.186 Y98.85 E19.37341
G1 X118.516 Y99.603 E19.41169
G1 X118.819 Y100.389 E19.45092
G1 X119.117 Y101.271 E19.49427
G1 X119.424 Y102.362 E19.54704
G1 X119.635 Y103.267 E19.59031
G1 X119.726 Y103.759 E19.61361
G1 X119.045 Y103.759 E19.64532
G1 X118.955 Y103.727 E19.64977
G1 X118.322 Y103.682 E19.67932
G1 X118.314 Y103.681 E19.67969
G1 X117.521 Y103.659 E19.71663
G1 X117.513 Y103.659 E19.71701
G1 X113.415 Y103.695 E19.90783
G1 X113.409 Y103.695 E19.90811
G1 X112.865 Y103.716 E19.93346
G1 X112.751 Y103.759 E19.93914
G1 X112.067 Y103.759 E19.97099
G1 X112.051 Y103.538 E19.9813
G1 X112.047 Y103.51 E19.98262
G1 X111.889 Y102.799 E20.01653
G1 X111.878 Y102.765 E20.0182
G1 X111.679 Y102.291 E20.04214
G1 X111.668 Y102.267 E20.04337
G1 X111.522 Y102.018 E20.05681
G1 X111.508 Y101.997 E20.05798
G1 X111.315 Y101.746 E20.07273
G1 X111.297 Y101.726 E20.07398
G1 X111.077 Y101.508 E20.0884
G1 X111.05 Y101.486 E20.09002
G1 X110.724 Y101.259 E20.10852
G1 X110.683 Y101.237 E20.11069
G1 X110.18 Y101.041 E20.13582
G1 X110.136 Y101.029 E20.13795
G1 X109.746 Y100.972 E20.1563
G1 X109.707 Y100.97 E20.15812
G1 X109.303 Y100.991 E20.17695
G1 X109.262 Y100.998 E20.17889
G1 X108.873 Y101.1 E20.19762
G1 X108.836 Y101.114 E20.19946
G1 X108.482 Y101.288 E20.21783
G1 X108.45 Y101.307 E20.21956
G1 X108.126 Y101.55 E20.23842
G1 X108.098 Y101.575 E20.24017
G1 X107.795 Y101.907 E20.2611
G1 X107.773 Y101.937 E20.26283
G1 X107.568 Y102.269 E20.281
G1 X107.555 Y102.294 E20.28231
G1 X107.415 Y102.614 E20.29857
G1 X107.408 Y102.632 E20.29947
G1 X107.316 Y102.914 E20.31328
G1 X107.312 Y102.928 E20.31396
G1 X107.226 Y103.277 E20.3307
G1 X107.224 Y103.285 E20.33108
G1 X107.16 Y103.598 E20.34596
G1 X107.157 Y103.618 E20.3469
G1 X107.143 Y103.76 E20.35355
G1 X106.481 Y103.76 E20.38437
G1 X106.453 Y103.733 E20.38618
G1 X106.372 Y103.713 E20.39007
G1 X104.878 Y103.669 E20.45966
G1 X104.87 Y103.669 E20.46004
G1 X101.058 Y103.713 E20.63755
G1 X100.939 Y103.753 E20.6434
G1 X100.934 Y103.76 E20.6438
G1 X100.274 Y103.76 E20.67453
G1 X100.373 Y103.224 E20.69991
G1 X100.583 Y102.33 E20.74267
G1 X100.647 Y102.096 E20.75397
G1 X100.645 Y102.051 E20.75607
G1 X100.953 Y101.051 E20.80479
