;FLAVOR:Marlin
;TIME:10618
;Filament used: 14.1107m
;Layer height: 0.16
;MINX:49.651
;MINY:29.135
;MINZ:0.2
;MAXX:170.325
;MAXY:190.865
;MAXZ:22
;TARGET_MACHINE.NAME:Creality Ender-3 V3 SE
;Generated with Cura_SteamEngine 5.7.1
M82 ;absolute extrusion mode
M220 S100 ;Reset Feedrate
M221 S100 ;Reset Flowrate

G28 ;Home

M420 S1; Use saved mesh leveling data

G92 E0 ;Reset Extruder
G1 Z2.0 F3000 ;Move Z Axis up
G1 X-3 Y20 Z0.28 F5000.0 ;Move to start position
M190 S60 ; Set bed temperature and wait
M109 S220.0 ; Set hotend temperature and wait
G1 X-3 Y100.0 Z0.28 F1500.0 E15 ;Draw the first line
G1 X-2 Y100.0 Z0.28 F5000.0 ;Move to side a little
G1 X-2 Y20 Z0.28 F1500.0 E30 ;Draw the second line
G92 E0 ;Reset Extruder
G1 E-1.0000 F1800 ;Retract a bit
G1 Z2.0 F3000 ;Move Z Axis up
G1 E0.0000 F1800 

G92 E0
G92 E0
G1 F2400 E-0.8
;LAYER_COUNT:110
;LAYER:0
M107
G0 F9000 X57.828 Y35.195 Z0.2
;TYPE:SKIRT
G1 F2400 E0
G1 F1800 X58.293 Y34.42 E0.03006
G1 X58.908 Y33.576 E0.06479
G1 X59.52 Y32.875 E0.09574
G1 X59.988 Y32.411 E0.11766
G1 X60.336 Y32.088 E0.13346
G1 X61.05 Y31.482 E0.1646
G1 X61.875 Y30.898 E0.19822
G1 X62.717 Y30.411 E0.23057
G1 X63.599 Y29.998 E0.26297
G1 X64.447 Y29.687 E0.29301
G1 X65.456 Y29.417 E0.32775
G1 X66.424 Y29.25 E0.36042
G1 X67.586 Y29.164 E0.39917
G1 X68.996 Y29.138 E0.44608
G1 X131.165 Y29.135 E2.51383
G1 X132.032 Y29.148 E2.54267
G1 X133.005 Y29.207 E2.57509
G1 X133.967 Y29.354 E2.60746
G1 X134.914 Y29.585 E2.63988
G1 X135.852 Y29.905 E2.67284
G1 X137.066 Y30.469 E2.71736
G1 X138.256 Y31.12 E2.76248
G1 X163.916 Y45.895 E3.7473
G1 X164.667 Y46.343 E3.77639
G1 X165.479 Y46.88 E3.80877
G1 X166.24 Y47.487 E3.84114
G1 X166.939 Y48.151 E3.87321
G1 X167.473 Y48.743 E3.89973
G1 X168.081 Y49.505 E3.93215
G1 X168.623 Y50.325 E3.96484
G1 X169.19 Y51.401 E4.00529
G1 X169.332 Y51.714 E4.01673
G1 X169.694 Y52.616 E4.04905
G1 X169.958 Y53.48 E4.0791
G1 X170.174 Y54.51 E4.1141
G1 X170.292 Y55.583 E4.15001
G1 X170.315 Y55.993 E4.16367
G1 X170.325 Y56.967 E4.19606
G1 X170.249 Y57.939 E4.22849
G1 X170.101 Y58.83 E4.25853
G1 X169.81 Y59.953 E4.29712
G1 X169.454 Y60.947 E4.33223
G1 X168.897 Y62.113 E4.37521
G1 X168.444 Y62.926 E4.40617
G1 X167.236 Y65.145 E4.4902
G1 X166.071 Y67.436 E4.57568
G1 X164.995 Y69.709 E4.65933
G1 X163.992 Y71.989 E4.74217
G1 X163.029 Y74.362 E4.82735
G1 X162.157 Y76.7 E4.91035
G1 X161.344 Y79.082 E4.99406
G1 X160.593 Y81.502 E5.07834
G1 X159.918 Y83.915 E5.16167
G1 X159.316 Y86.334 E5.24458
G1 X158.768 Y88.832 E5.32964
G1 X158.304 Y91.272 E5.41225
G1 X157.897 Y93.805 E5.49758
G1 X157.698 Y95.253 E5.54619
G1 X155.406 Y112.872 E6.13714
G1 X155.278 Y113.743 E6.16642
G1 X155.091 Y114.698 E6.19879
G1 X154.843 Y115.566 E6.22881
G1 X154.459 Y116.556 E6.26413
G1 X153.832 Y117.769 E6.30955
G1 X153.576 Y118.195 E6.32608
G1 X152.283 Y120.425 E6.41181
G1 X151.097 Y122.608 E6.49444
G1 X149.956 Y124.861 E6.57844
G1 X148.873 Y127.155 E6.66282
G1 X147.871 Y129.447 E6.74601
G1 X146.917 Y131.807 E6.83068
G1 X146.058 Y134.118 E6.91268
G1 X145.234 Y136.541 E6.9978
G1 X144.493 Y138.939 E7.08128
G1 X143.825 Y141.346 E7.16436
G1 X143.222 Y143.785 E7.24793
G1 X142.669 Y146.317 E7.33413
G1 X142.217 Y148.723 E7.41555
G1 X141.822 Y151.206 E7.49918
G1 X141.495 Y153.71 E7.58317
G1 X141.24 Y156.221 E7.66711
G1 X141.057 Y158.719 E7.75042
G1 X140.944 Y161.249 E7.83465
G1 X140.9 Y164.075 E7.92865
G1 X140.899 Y178.593 E8.41153
G1 X140.886 Y179.462 E8.44043
G1 X140.826 Y180.45 E8.47335
G1 X140.68 Y181.414 E8.50578
G1 X140.449 Y182.36 E8.53817
G1 X140.151 Y183.245 E8.56923
G1 X139.878 Y183.89 E8.59252
G1 X139.728 Y184.216 E8.60446
G1 X139.279 Y185.08 E8.63685
G1 X138.755 Y185.902 E8.66927
G1 X138.16 Y186.673 E8.70166
G1 X137.497 Y187.392 E8.73419
G1 X136.727 Y188.088 E8.76871
G1 X136.488 Y188.283 E8.77897
G1 X135.735 Y188.844 E8.8102
G1 X134.876 Y189.374 E8.84377
G1 X134.069 Y189.779 E8.8738
G1 X133.237 Y190.118 E8.90369
G1 X132.312 Y190.426 E8.93611
G1 X131.366 Y190.651 E8.96845
G1 X130.472 Y190.784 E8.99852
G1 X129.504 Y190.844 E9.03077
G1 X128.318 Y190.864 E9.07023
G1 X68.348 Y190.865 E11.06484
G1 X67.467 Y190.852 E11.09414
G1 X66.496 Y190.793 E11.1265
G1 X65.532 Y190.647 E11.15892
G1 X64.585 Y190.416 E11.19135
G1 X63.729 Y190.128 E11.22138
G1 X62.773 Y189.709 E11.2561
G1 X61.92 Y189.238 E11.28851
G1 X61.113 Y188.693 E11.3209
G1 X60.356 Y188.079 E11.35332
G1 X59.658 Y187.401 E11.38568
G1 X59.022 Y186.664 E11.41806
G1 X58.453 Y185.874 E11.45044
G1 X57.99 Y185.098 E11.4805
G1 X57.538 Y184.157 E11.51522
G1 X57.197 Y183.245 E11.5476
G1 X56.938 Y182.305 E11.58003
G1 X56.761 Y181.338 E11.61273
G1 X56.664 Y180.157 E11.65214
G1 X56.651 Y179.55 E11.67233
G1 X56.651 Y171.652 E11.93502
G1 X56.614 Y169.058 E12.02131
G1 X56.505 Y166.514 E12.106
G1 X56.329 Y164.028 E12.18889
G1 X56.082 Y161.534 E12.27225
G1 X55.761 Y159.027 E12.35631
G1 X55.371 Y156.544 E12.43991
G1 X54.909 Y154.059 E12.52398
G1 X54.385 Y151.619 E12.60698
G1 X53.789 Y149.198 E12.68991
G1 X53.106 Y146.714 E12.77559
G1 X52.378 Y144.315 E12.85898
G1 X52.14 Y143.371 E12.89136
G1 X51.987 Y142.418 E12.92346
G1 X51.926 Y141.687 E12.94786
G1 X51.893 Y140.956 E12.9722
G1 X51.854 Y139.695 E13.01416
G1 X51.707 Y137.191 E13.09758
G1 X51.487 Y134.676 E13.18155
G1 X51.196 Y132.183 E13.26503
G1 X50.833 Y129.68 E13.34915
G1 X50.409 Y127.24 E13.43152
G1 X49.87 Y124.573 E13.52202
G1 X49.735 Y123.68 E13.55206
G1 X49.672 Y122.687 E13.58515
G1 X49.651 Y121.465 E13.6258
G1 X49.654 Y99.803 E14.34629
G1 X49.666 Y99.071 E14.37064
G1 X49.727 Y98.096 E14.40313
G1 X49.879 Y97.097 E14.43674
G1 X50.446 Y94.273 E14.53254
G1 X50.863 Y91.837 E14.61474
G1 X51.222 Y89.299 E14.69999
G1 X51.501 Y86.833 E14.78254
G1 X51.717 Y84.302 E14.86702
G1 X51.856 Y81.808 E14.9501
G1 X51.887 Y80.747 E14.98541
G1 X51.924 Y79.919 E15.01297
G1 X52.015 Y78.922 E15.04627
G1 X52.13 Y78.24 E15.06928
G1 X52.675 Y75.53 E15.16121
G1 X53.103 Y73.037 E15.24535
G1 X53.451 Y70.596 E15.32735
G1 X53.735 Y68.106 E15.41071
G1 X53.955 Y65.558 E15.49577
G1 X54.095 Y63.094 E15.57786
G1 X54.14 Y61.484 E15.63143
G1 X54.171 Y60.754 E15.65573
G1 X54.26 Y59.756 E15.68905
G1 X54.376 Y59.068 E15.71226
G1 X54.914 Y56.387 E15.80321
G1 X55.339 Y53.904 E15.88699
G1 X55.688 Y51.446 E15.96957
G1 X55.972 Y48.935 E16.05362
G1 X56.188 Y46.424 E16.13744
G1 X56.327 Y43.926 E16.22065
G1 X56.421 Y40.416 E16.33744
G1 X56.487 Y39.445 E16.36981
G1 X56.64 Y38.47 E16.40263
G1 X56.98 Y37.178 E16.44707
G1 X57.4 Y36.069 E16.48651
G1 X57.828 Y35.195 E16.51888
G0 F9000 X58.171 Y35.401
G1 F1800 X58.636 Y34.626 E16.54894
G1 X59.209 Y33.839 E16.58132
G1 X59.802 Y33.159 E16.61133
G1 X60.26 Y32.704 E16.6328
G1 X60.595 Y32.393 E16.648
G1 X61.282 Y31.808 E16.67801
G1 X62.076 Y31.244 E16.71041
G1 X62.887 Y30.773 E16.7416
G1 X63.737 Y30.374 E16.77283
G1 X64.585 Y30.063 E16.80287
G1 X65.525 Y29.811 E16.83524
G1 X66.454 Y29.649 E16.8666
G1 X67.593 Y29.564 E16.90459
G1 X68.996 Y29.538 E16.95127
G1 X131.159 Y29.535 E19.01882
G1 X132.008 Y29.547 E19.04706
G1 X132.945 Y29.603 E19.07828
G1 X133.873 Y29.743 E19.10949
G1 X134.786 Y29.964 E19.14073
G1 X135.683 Y30.268 E19.17224
G1 X136.897 Y30.832 E19.21676
G1 X138.056 Y31.467 E19.26071
G1 X163.711 Y46.239 E20.24534
G1 X164.447 Y46.677 E20.27383
G1 X165.23 Y47.193 E20.30502
G1 X165.965 Y47.777 E20.33624
G1 X166.642 Y48.419 E20.36727
G1 X167.161 Y48.993 E20.39301
G1 X167.748 Y49.726 E20.42425
G1 X168.269 Y50.512 E20.45561
G1 X168.826 Y51.567 E20.49529
G1 X168.961 Y51.863 E20.50611
G1 X169.311 Y52.733 E20.5373
G1 X169.575 Y53.597 E20.56735
G1 X169.776 Y54.554 E20.59987
G1 X169.894 Y55.627 E20.63578
G1 X169.915 Y55.998 E20.64814
G1 X169.926 Y56.936 E20.67934
G1 X169.854 Y57.873 E20.71059
G1 X169.706 Y58.764 E20.74063
G1 X169.433 Y59.818 E20.77685
G1 X169.077 Y60.812 E20.81196
G1 X168.536 Y61.94 E20.85357
G1 X168.095 Y62.731 E20.88369
G1 X166.879 Y64.964 E20.96826
G1 X165.714 Y67.255 E21.05375
G1 X164.633 Y69.538 E21.13776
G1 X163.621 Y71.839 E21.22137
G1 X162.658 Y74.212 E21.30655
G1 X161.782 Y76.56 E21.3899
G1 X160.965 Y78.953 E21.474
G1 X160.211 Y81.383 E21.55862
G1 X159.533 Y83.807 E21.64234
G1 X158.925 Y86.248 E21.72601
G1 X158.377 Y88.746 E21.81107
G1 X157.911 Y91.197 E21.89405
G1 X157.502 Y93.742 E21.97978
G1 X157.301 Y95.201 E22.02877
G1 X155.01 Y112.814 E22.61951
G1 X154.885 Y113.667 E22.64819
G1 X154.706 Y114.588 E22.67939
G1 X154.458 Y115.456 E22.70942
G1 X154.104 Y116.372 E22.74208
G1 X153.489 Y117.563 E22.78666
G1 X153.233 Y117.989 E22.80319
G1 X151.937 Y120.224 E22.88912
G1 X150.74 Y122.427 E22.97251
G1 X149.599 Y124.68 E23.05651
G1 X148.512 Y126.984 E23.14124
G1 X147.5 Y129.297 E23.22521
G1 X146.546 Y131.657 E23.30988
G1 X145.679 Y133.989 E23.39263
G1 X144.855 Y136.412 E23.47775
G1 X144.111 Y138.821 E23.56161
G1 X143.44 Y141.239 E23.64507
G1 X142.831 Y143.7 E23.72939
G1 X142.278 Y146.232 E23.81559
G1 X141.824 Y148.649 E23.89739
G1 X141.425 Y151.154 E23.98175
G1 X141.098 Y153.658 E24.06574
G1 X140.842 Y156.181 E24.15009
G1 X140.657 Y158.701 E24.23413
G1 X140.544 Y161.231 E24.31836
G1 X140.5 Y164.069 E24.41277
G1 X140.499 Y178.587 E24.89564
G1 X140.487 Y179.438 E24.92395
G1 X140.43 Y180.391 E24.9557
G1 X140.291 Y181.32 E24.98694
G1 X140.07 Y182.232 E25.01815
G1 X139.772 Y183.117 E25.04921
G1 X139.515 Y183.723 E25.07111
G1 X139.373 Y184.032 E25.08242
G1 X138.941 Y184.866 E25.11366
G1 X138.438 Y185.658 E25.14486
G1 X137.866 Y186.402 E25.17607
G1 X137.229 Y187.095 E25.20738
G1 X136.474 Y187.778 E25.24124
G1 X136.249 Y187.962 E25.25091
G1 X135.496 Y188.523 E25.28214
G1 X134.697 Y189.016 E25.31337
G1 X133.89 Y189.421 E25.3434
G1 X133.11 Y189.739 E25.37142
G1 X132.219 Y190.037 E25.40266
G1 X131.307 Y190.255 E25.43385
G1 X130.413 Y190.388 E25.46391
G1 X129.497 Y190.444 E25.49444
G1 X128.318 Y190.464 E25.53366
G1 X68.354 Y190.465 E27.52807
G1 X67.491 Y190.453 E27.55677
G1 X66.555 Y190.397 E27.58796
G1 X65.626 Y190.258 E27.6192
G1 X64.713 Y190.037 E27.65045
G1 X63.857 Y189.749 E27.68049
G1 X62.966 Y189.359 E27.71284
G1 X62.143 Y188.906 E27.74408
G1 X61.364 Y188.382 E27.77531
G1 X60.634 Y187.792 E27.80653
G1 X59.96 Y187.139 E27.83774
G1 X59.346 Y186.43 E27.86893
G1 X58.797 Y185.669 E27.90014
G1 X58.334 Y184.893 E27.9302
G1 X57.912 Y184.016 E27.96257
G1 X57.582 Y183.138 E27.99377
G1 X57.331 Y182.233 E28.025
G1 X57.16 Y181.305 E28.05639
G1 X57.064 Y180.148 E28.095
G1 X57.051 Y179.541 E28.1152
G1 X57.051 Y171.652 E28.37758
G1 X57.014 Y169.052 E28.46407
G1 X56.905 Y166.497 E28.54913
G1 X56.728 Y164 E28.63239
G1 X56.479 Y161.483 E28.71651
G1 X56.158 Y158.976 E28.80057
G1 X55.766 Y156.482 E28.88454
G1 X55.302 Y153.986 E28.96898
G1 X54.776 Y151.535 E29.05236
G1 X54.175 Y149.092 E29.13604
G1 X53.492 Y146.608 E29.22172
G1 X52.766 Y144.217 E29.30483
G1 X52.535 Y143.307 E29.33606
G1 X52.386 Y142.385 E29.36712
G1 X52.326 Y141.669 E29.39102
G1 X52.293 Y140.944 E29.41516
G1 X52.254 Y139.683 E29.45712
G1 X52.106 Y137.168 E29.54091
G1 X51.885 Y134.641 E29.62528
G1 X51.592 Y132.126 E29.7095
G1 X51.229 Y129.623 E29.79362
G1 X50.803 Y127.172 E29.87636
G1 X50.266 Y124.513 E29.96658
G1 X50.131 Y123.62 E29.99662
G1 X50.072 Y122.68 E30.02795
G1 X50.051 Y121.465 E30.06837
G1 X50.054 Y99.809 E30.78865
G1 X50.065 Y99.095 E30.8124
G1 X50.122 Y98.156 E30.84369
G1 X50.271 Y97.176 E30.87666
G1 X50.838 Y94.352 E30.97246
G1 X51.257 Y91.904 E31.05506
G1 X51.618 Y89.355 E31.14069
G1 X51.9 Y86.867 E31.22397
G1 X52.115 Y84.336 E31.30845
G1 X52.256 Y81.82 E31.39227
G1 X52.287 Y80.765 E31.42737
G1 X52.324 Y79.937 E31.45494
G1 X52.409 Y78.989 E31.4866
G1 X52.522 Y78.319 E31.5092
G1 X53.067 Y75.609 E31.60114
G1 X53.497 Y73.105 E31.68564
G1 X53.847 Y70.653 E31.76802
G1 X54.134 Y68.14 E31.85214
G1 X54.353 Y65.592 E31.9372
G1 X54.495 Y63.105 E32.02006
G1 X54.54 Y61.501 E32.07343
G1 X54.571 Y60.771 E32.09773
G1 X54.655 Y59.822 E32.12942
G1 X54.768 Y59.147 E32.15218
G1 X55.306 Y56.466 E32.24313
G1 X55.733 Y53.972 E32.32728
G1 X56.084 Y51.502 E32.41026
G1 X56.371 Y48.969 E32.49505
G1 X56.586 Y46.458 E32.57887
G1 X56.727 Y43.937 E32.66285
G1 X56.82 Y40.442 E32.77914
G1 X56.882 Y39.506 E32.81034
G1 X57.027 Y38.572 E32.84177
G1 X57.367 Y37.28 E32.88621
G1 X57.76 Y36.244 E32.92306
G1 X58.171 Y35.401 E32.95425
G0 F9000 X58.514 Y35.607
G1 F1800 X58.979 Y34.832 E32.98432
G1 X59.51 Y34.102 E33.01434
G1 X60.103 Y33.422 E33.04435
G1 X60.533 Y32.997 E33.06446
G1 X60.854 Y32.698 E33.07905
G1 X61.541 Y32.113 E33.10906
G1 X62.278 Y31.59 E33.13912
G1 X63.058 Y31.135 E33.16915
G1 X63.875 Y30.75 E33.19919
G1 X64.723 Y30.439 E33.22923
G1 X65.595 Y30.205 E33.25926
G1 X66.484 Y30.048 E33.28929
G1 X67.6 Y29.964 E33.32651
G1 X68.996 Y29.938 E33.37295
G1 X131.154 Y29.935 E35.44033
G1 X131.985 Y29.946 E35.46797
G1 X132.886 Y29.999 E35.49799
G1 X133.78 Y30.132 E35.52805
G1 X134.658 Y30.343 E35.55809
G1 X135.514 Y30.631 E35.58813
G1 X136.728 Y31.195 E35.63265
G1 X137.856 Y31.814 E35.67545
G1 X163.507 Y46.583 E36.65991
G1 X164.227 Y47.011 E36.68777
G1 X164.982 Y47.507 E36.71781
G1 X165.69 Y48.067 E36.74784
G1 X166.346 Y48.688 E36.77788
G1 X166.849 Y49.243 E36.8028
G1 X167.415 Y49.948 E36.83287
G1 X167.915 Y50.699 E36.86287
G1 X168.462 Y51.733 E36.90178
G1 X168.59 Y52.013 E36.91202
G1 X168.928 Y52.85 E36.94204
G1 X169.192 Y53.714 E36.97209
G1 X169.378 Y54.598 E37.00214
G1 X169.496 Y55.671 E37.03804
G1 X169.515 Y56.003 E37.0491
G1 X169.527 Y56.906 E37.07914
G1 X169.459 Y57.807 E37.10919
G1 X169.311 Y58.698 E37.13923
G1 X169.056 Y59.684 E37.1731
G1 X168.716 Y60.639 E37.20682
G1 X168.175 Y61.767 E37.24843
G1 X167.746 Y62.536 E37.27772
G1 X166.522 Y64.783 E37.36282
G1 X165.357 Y67.074 E37.44831
G1 X164.271 Y69.367 E37.53269
G1 X163.25 Y71.689 E37.61706
G1 X162.287 Y74.062 E37.70224
G1 X161.407 Y76.42 E37.78595
G1 X160.586 Y78.824 E37.87044
G1 X159.829 Y81.264 E37.95541
G1 X159.148 Y83.699 E38.03951
G1 X158.534 Y86.162 E38.12393
G1 X157.986 Y88.66 E38.20899
G1 X157.518 Y91.122 E38.29235
G1 X157.107 Y93.679 E38.37848
G1 X156.904 Y95.149 E38.42784
G1 X154.614 Y112.756 E39.01838
G1 X154.492 Y113.591 E39.04645
G1 X154.321 Y114.478 E39.0765
G1 X154.073 Y115.346 E39.10652
G1 X153.748 Y116.189 E39.13657
G1 X153.146 Y117.357 E39.18028
G1 X152.89 Y117.783 E39.19681
G1 X151.591 Y120.023 E39.28293
G1 X150.383 Y122.246 E39.36708
G1 X149.242 Y124.499 E39.45107
G1 X148.151 Y126.813 E39.53616
G1 X147.129 Y129.147 E39.62091
G1 X146.175 Y131.507 E39.70557
G1 X145.3 Y133.86 E39.78907
G1 X144.476 Y136.283 E39.87419
G1 X143.729 Y138.703 E39.95843
G1 X143.055 Y141.132 E40.04227
G1 X142.44 Y143.615 E40.12735
G1 X141.887 Y146.147 E40.21355
G1 X141.431 Y148.575 E40.29572
G1 X141.028 Y151.102 E40.38083
G1 X140.701 Y153.606 E40.46482
G1 X140.444 Y156.141 E40.54957
G1 X140.257 Y158.683 E40.63434
G1 X140.144 Y161.213 E40.71857
G1 X140.1 Y164.063 E40.81338
G1 X140.099 Y178.581 E41.29625
G1 X140.087 Y179.432 E41.32455
G1 X140.034 Y180.333 E41.35457
G1 X139.902 Y181.227 E41.38463
G1 X139.691 Y182.105 E41.41466
G1 X139.404 Y182.961 E41.44469
G1 X139.152 Y183.556 E41.46618
G1 X139.017 Y183.849 E41.47691
G1 X138.603 Y184.652 E41.50696
G1 X138.12 Y185.415 E41.537
G1 X137.571 Y186.132 E41.56703
G1 X136.961 Y186.798 E41.59707
G1 X136.22 Y187.469 E41.63032
G1 X136.009 Y187.642 E41.6394
G1 X135.286 Y188.183 E41.66943
G1 X134.518 Y188.658 E41.69946
G1 X133.711 Y189.063 E41.7295
G1 X132.982 Y189.36 E41.75568
G1 X132.126 Y189.648 E41.78572
G1 X131.248 Y189.859 E41.81575
G1 X130.354 Y189.992 E41.84581
G1 X129.49 Y190.044 E41.8746
G1 X128.318 Y190.064 E41.91359
G1 X68.359 Y190.065 E43.90783
G1 X67.514 Y190.054 E43.93594
G1 X66.613 Y190.001 E43.96596
G1 X65.719 Y189.869 E43.99601
G1 X64.841 Y189.658 E44.02605
G1 X63.985 Y189.37 E44.05609
G1 X63.158 Y189.008 E44.08611
G1 X62.366 Y188.574 E44.11615
G1 X61.615 Y188.071 E44.14621
G1 X60.912 Y187.504 E44.17625
G1 X60.262 Y186.877 E44.20629
G1 X59.67 Y186.195 E44.23633
G1 X59.141 Y185.464 E44.26634
G1 X58.678 Y184.688 E44.2964
G1 X58.286 Y183.875 E44.32642
G1 X57.967 Y183.03 E44.35646
G1 X57.724 Y182.16 E44.3865
G1 X57.559 Y181.272 E44.41654
G1 X57.464 Y180.139 E44.45436
G1 X57.451 Y179.532 E44.47455
G1 X57.451 Y171.652 E44.73664
G1 X57.414 Y169.046 E44.82332
G1 X57.305 Y166.48 E44.90875
