; HEADER_BLOCK_START
; generated by OrcaSlicer 2.1.0-beta on 2024-05-31 at 11:48:02
; total layer number: 21
; filament_density: 1.24
; filament_diameter: 1.75
; max_z_height: 5.00
; HEADER_BLOCK_END

; external perimeters extrusion width = 0.42mm
; perimeters extrusion width = 0.45mm
; infill extrusion width = 0.45mm
; solid infill extrusion width = 0.42mm
; top infill extrusion width = 0.42mm
; first layer extrusion width = 0.46mm

; EXECUTABLE_BLOCK_START
M201 X2500 Y2500 Z500 E5000
M203 X250 Y250 Z5 E40
M204 P2500 R500 T2500 ; sets acceleration (P, T) and retract acceleration (R), mm/sec^2
M205 X10.00 Y10.00 Z0.40 E5.00 ; sets the jerk limits, mm/sec
;TYPE:Custom
M220 S100 ;Reset Feedrate 
M221 S100 ;Reset Flowrate 
 
M104 S220 ;Set final nozzle temp 
M190 S55 ;Set and wait for bed temp to stabilize 
G28 ;Home 
G92 E0 ;Reset Extruder 
G1 Z2.0 F3000 ;Move Z Axis up 
G1 X-2.1 Y20 Z0.28 F5000.0 ;Move to start position 
M109 S220 ;Wait for nozzle temp to stabilize 
G1 X-2.1 Y145.0 Z0.28 F1500.0 E15 ;Draw the first line 
G1 X-2.4 Y145.0 Z0.28 F5000.0 ;Move to side a little 
G1 X-2.4 Y20 Z0.28 F1500.0 E30 ;Draw the second line 
G92 E0  ;Reset Extruder 
G1 E-1.0000 F1800 ;Retract a bit 
G1 Z2.0 F3000 ;Move Z Axis up 
G1 E0.0000 F1800
G90
G21
M83 ; use relative distances for extrusion
; filament start gcode
M106 S0
;LAYER_CHANGE
;Z:0.2
;HEIGHT:0.2
;BEFORE_LAYER_CHANGE
;0.2
G92 E0

G1 E-1.2 F2400
;_SET_FAN_SPEED_CHANGING_LAYER
M204 P500
; printing object Key.stl id:8387236764689850234 copy 0
M204 T500
G1 Z.4 F9000
G1 X106.003 Y89.64
G1 Z.4
G1 Z.2
G1 E1.2 F1800
;TYPE:Inner wall
;WIDTH:0.653724
G1 X106.033 Y89.689 E.00287
;WIDTH:0.610602
G1 X106.064 Y89.738 E.00267
;WIDTH:0.56748
G1 X106.094 Y89.787 E.00246
;WIDTH:0.524358
G1 X106.124 Y89.836 E.00226
;WIDTH:0.481236
G1 X106.155 Y89.885 E.00206
;WIDTH:0.438114
G1 X106.185 Y89.934 E.00186
;WIDTH:0.394992
G1 X106.215 Y89.983 E.00165
;WIDTH:0.398849
G1 X106.275 Y90.092 E.00358
;WIDTH:0.445828
G1 X106.334 Y90.2 E.00406
;WIDTH:0.492807
G1 X106.393 Y90.308 E.00453
;WIDTH:0.539786
G1 X106.453 Y90.417 E.005
;WIDTH:0.586765
G1 X106.512 Y90.525 E.00548
;WIDTH:0.633744
G1 X106.572 Y90.633 E.00595
G1 X106.652 Y90.638 E.00388
;WIDTH:0.590269
G1 X106.732 Y90.642 E.00359
;WIDTH:0.546794
G1 X106.813 Y90.646 E.00331
;WIDTH:0.503319
G1 X106.893 Y90.65 E.00302
;WIDTH:0.459844
G1 X106.974 Y90.654 E.00274
;WIDTH:0.416369
G1 X107.054 Y90.658 E.00245
;WIDTH:0.420054
G1 X107.118 Y90.679 E.00205
;WIDTH:0.467214
G1 X107.181 Y90.699 E.00231
;WIDTH:0.514374
G1 X107.245 Y90.719 E.00257
;WIDTH:0.561534
G1 X107.309 Y90.74 E.00282
;WIDTH:0.608694
G1 X107.372 Y90.76 E.00308
;WIDTH:0.655854
G1 X107.436 Y90.781 E.00334
G1 X107.378 Y90.814 E.00334
;WIDTH:0.608694
G1 X107.32 Y90.847 E.00308
;WIDTH:0.561534
G1 X107.262 Y90.88 E.00282
;WIDTH:0.514374
G1 X107.204 Y90.913 E.00257
;WIDTH:0.467214
G1 X107.146 Y90.947 E.00231
;WIDTH:0.420054
G1 X107.088 Y90.98 E.00205
;WIDTH:0.416369
G1 X107.01 Y91 E.00245
;WIDTH:0.459844
G1 X106.932 Y91.021 E.00274
;WIDTH:0.503319
G1 X106.854 Y91.042 E.00302
;WIDTH:0.546794
G1 X106.776 Y91.062 E.00331
;WIDTH:0.590269
G1 X106.699 Y91.083 E.00359
;WIDTH:0.633744
G1 X106.621 Y91.104 E.00388
;WIDTH:0.653724
G1 X106.255 Y92.051 E.05055
G1 X106.126 Y90.918 E.05677
;WIDTH:0.633744
G1 X106.091 Y90.773 E.00717
;WIDTH:0.586765
G1 X106.055 Y90.628 E.0066
;WIDTH:0.539786
G1 X106.019 Y90.484 E.00603
;WIDTH:0.492807
G1 X105.984 Y90.339 E.00546
;WIDTH:0.445828
G1 X105.948 Y90.194 E.00489
;WIDTH:0.398849
G1 X105.913 Y90.049 E.00432
;WIDTH:0.394992
G1 X105.926 Y89.991 E.00172
;WIDTH:0.438114
G1 X105.938 Y89.933 E.00193
;WIDTH:0.481236
G1 X105.951 Y89.874 E.00214
;WIDTH:0.524358
G1 X105.964 Y89.816 E.00235
;WIDTH:0.56748
G1 X105.977 Y89.757 E.00256
;WIDTH:0.610602
G1 X105.99 Y89.699 E.00277
;WIDTH:0.653724
G1 X105.994 Y89.679 E.00099
G1 E-.84 F2400
;WIPE_START
G1 F1800
G1 X106.033 Y89.689 E-.01448
G1 X106.064 Y89.738 E-.02074
G1 X106.094 Y89.787 E-.02074
G1 X106.124 Y89.836 E-.02074
G1 X106.155 Y89.885 E-.02074
G1 X106.185 Y89.934 E-.02074
G1 X106.215 Y89.983 E-.02074
G1 X106.275 Y90.092 E-.04448
G1 X106.334 Y90.2 E-.04448
G1 X106.393 Y90.308 E-.04448
G1 X106.453 Y90.417 E-.04448
G1 X106.51 Y90.522 E-.04313
;WIPE_END
G1 Z.6 F9000
G1 X110.443 Y90.466 Z.6
G1 Z.2
G1 E1.2 F1800
;WIDTH:0.655852
G1 X110.624 Y90.423 E.0093
;WIDTH:0.606218
G1 X110.805 Y90.381 E.00855
;WIDTH:0.556583
G1 X110.986 Y90.338 E.00779
;WIDTH:0.506948
G1 X111.167 Y90.295 E.00704
;WIDTH:0.457314
G1 X111.348 Y90.252 E.00629
;WIDTH:0.40768
G1 X111.53 Y90.209 E.00553
G1 X111.598 Y90.226 E.0021
;WIDTH:0.457316
G1 X111.667 Y90.242 E.00239
;WIDTH:0.506951
G1 X111.736 Y90.259 E.00267
;WIDTH:0.556587
G1 X111.804 Y90.276 E.00296
;WIDTH:0.606223
G1 X111.873 Y90.293 E.00325
;WIDTH:0.655858
G1 X111.942 Y90.31 E.00353
G1 X111.888 Y90.341 E.0031
;WIDTH:0.610703
G1 X111.834 Y90.372 E.00287
;WIDTH:0.565548
G1 X111.78 Y90.402 E.00264
;WIDTH:0.520393
G1 X111.726 Y90.433 E.00242
;WIDTH:0.475238
G1 X111.672 Y90.464 E.00219
;WIDTH:0.430082
G1 X111.618 Y90.495 E.00196
;WIDTH:0.416339
G1 X111.432 Y90.574 E.00615
;WIDTH:0.44775
G1 X111.246 Y90.653 E.00667
G1 X111.147 Y90.763 E.00489
G1 X111.028 Y90.675 E.00489
;WIDTH:0.489371
G1 X110.911 Y90.634 E.00452
;WIDTH:0.530991
G1 X110.794 Y90.592 E.00494
;WIDTH:0.572612
G1 X110.677 Y90.55 E.00537
;WIDTH:0.614232
G1 X110.56 Y90.508 E.00579
;WIDTH:0.655852
G1 X110.48 Y90.48 E.00421
G1 E-.84 F2400
;WIPE_START
G1 F1800
G1 X110.624 Y90.423 E-.0555
G1 X110.805 Y90.381 E-.06702
G1 X110.986 Y90.338 E-.06702
G1 X111.167 Y90.295 E-.06702
G1 X111.348 Y90.252 E-.06702
G1 X111.447 Y90.228 E-.03644
;WIPE_END
G1 Z.6 F9000
G1 X114.421 Y90.051 Z.6
G1 Z.2
G1 E1.2 F1800
;WIDTH:0.655854
G1 X115.038 Y89.963 E.03114
;WIDTH:0.609182
G1 X115.655 Y89.875 E.02876
;WIDTH:0.562509
G1 X115.682 Y90.133 E.011
G1 X115.729 Y90.361 E.00987
;WIDTH:0.516553
G1 X115.776 Y90.589 E.00899
;WIDTH:0.470596
G1 X115.823 Y90.818 E.00812
;WIDTH:0.42464
G1 X115.87 Y91.046 E.00725
;WIDTH:0.378692
G1 X116.182 Y94.028 E.08203
G1 X115.848 Y94.063 E.00919
G1 X115.536 Y91.081 E.08203
;WIDTH:0.42464
G1 X115.466 Y90.9 E.00604
;WIDTH:0.470596
G1 X115.395 Y90.719 E.00677
;WIDTH:0.516553
G1 X115.325 Y90.538 E.0075
;WIDTH:0.562509
G1 X115.254 Y90.357 E.00823
;WIDTH:0.609182
G1 X114.838 Y90.204 E.02048
;WIDTH:0.655854
G1 X114.459 Y90.064 E.02017
G1 E-.84 F2400
;WIPE_START
G1 F1800
G1 X115.038 Y89.963 E-.21185
G1 X115.446 Y89.905 E-.14815
;WIPE_END
G1 Z.6 F9000
G1 X106.75 Y86.173 Z.6
G1 Z.2
G1 E1.2 F1800
;WIDTH:0.349302
G1 X106.712 Y86.177 E.00096
;WIDTH:0.396747
G1 X106.613 Y86.201 E.00292
;WIDTH:0.444192
G1 X106.515 Y86.226 E.00331
;WIDTH:0.491637
G1 X106.416 Y86.25 E.00371
;WIDTH:0.539082
G1 X106.318 Y86.274 E.0041
;WIDTH:0.586527
G1 X106.22 Y86.298 E.00449
;WIDTH:0.633971
G1 X106.121 Y86.322 E.00488
;WIDTH:0.653724
G1 X105.755 Y87.27 E.05057
G1 X105.627 Y86.136 E.0568
;WIDTH:0.633971
G1 X105.59 Y85.989 E.0073
;WIDTH:0.587263
G1 X105.553 Y85.842 E.00672
;WIDTH:0.540554
G1 X105.517 Y85.695 E.00615
;WIDTH:0.493845
G1 X105.48 Y85.548 E.00557
;WIDTH:0.447137
G1 X105.444 Y85.401 E.00499
;WIDTH:0.400428
G1 X105.407 Y85.253 E.00442
;WIDTH:0.396774
G1 X105.421 Y85.195 E.00173
;WIDTH:0.439829
G1 X105.434 Y85.136 E.00195
;WIDTH:0.482884
G1 X105.448 Y85.078 E.00216
;WIDTH:0.525938
G1 X105.461 Y85.019 E.00237
;WIDTH:0.568993
G1 X105.475 Y84.96 E.00258
;WIDTH:0.612048
G1 X105.488 Y84.902 E.00279
;WIDTH:0.655102
G1 X105.502 Y84.843 E.003
G1 X105.532 Y84.893 E.00288
;WIDTH:0.612048
G1 X105.562 Y84.942 E.00268
;WIDTH:0.568993
G1 X105.592 Y84.991 E.00248
;WIDTH:0.525938
G1 X105.622 Y85.041 E.00227
;WIDTH:0.482884
G1 X105.652 Y85.09 E.00207
;WIDTH:0.439829
G1 X105.682 Y85.14 E.00187
;WIDTH:0.396774
G1 X105.712 Y85.189 E.00167
;WIDTH:0.400428
G1 X105.772 Y85.299 E.00366
;WIDTH:0.447137
G1 X105.832 Y85.41 E.00414
;WIDTH:0.493845
G1 X105.892 Y85.52 E.00462
;WIDTH:0.540554
G1 X105.952 Y85.631 E.0051
;WIDTH:0.587263
G1 X106.012 Y85.741 E.00558
;WIDTH:0.633971
G1 X106.072 Y85.852 E.00606
G1 X106.186 Y85.854 E.00548
;WIDTH:0.586527
G1 X106.3 Y85.856 E.00504
;WIDTH:0.539082
G1 X106.414 Y85.858 E.0046
;WIDTH:0.491637
G1 X106.528 Y85.86 E.00416
;WIDTH:0.444192
G1 X106.641 Y85.863 E.00372
;WIDTH:0.396747
G1 X106.755 Y85.865 E.00328
;WIDTH:0.349302
G1 X114.047 Y85.102 E.18303
;WIDTH:0.391934
G1 X114.172 Y85.041 E.00396
;WIDTH:0.434566
G1 X114.297 Y84.981 E.00445
;WIDTH:0.477198
G1 X114.423 Y84.92 E.00493
;WIDTH:0.51983
G1 X114.548 Y84.859 E.00541
;WIDTH:0.562461
G1 X114.673 Y84.798 E.0059
G1 X114.707 Y84.65 E.00643
;WIDTH:0.518733
G1 X114.74 Y84.501 E.00589
;WIDTH:0.475005
G1 X114.773 Y84.353 E.00535
;WIDTH:0.431277
G1 X114.807 Y84.205 E.00481
;WIDTH:0.387548
G1 X114.799 Y84.031 E.00489
;WIDTH:0.378692
G1 X114.515 Y81.314 E.07476
G1 X114.849 Y81.279 E.00919
G1 X115.149 Y84.149 E.07897
;WIDTH:0.424628
G1 X115.153 Y84.408 E.00807
;WIDTH:0.470572
G1 X115.157 Y84.668 E.00904
;WIDTH:0.516517
G1 X115.161 Y84.927 E.01001
;WIDTH:0.562461
G1 X115.165 Y85.186 E.01098
G1 X114.907 Y85.213 E.011
G1 X114.713 Y85.255 E.0084
;WIDTH:0.51983
G1 X114.519 Y85.297 E.00771
;WIDTH:0.477198
G1 X114.325 Y85.338 E.00702
;WIDTH:0.434566
G1 X114.131 Y85.38 E.00633
;WIDTH:0.391934
G1 X113.937 Y85.422 E.00564
;WIDTH:0.349302
G1 X106.79 Y86.169 E.17942
G1 E-.84 F2400
;WIPE_START
G1 F1800
G1 X106.712 Y86.177 E-.0282
G1 X106.613 Y86.201 E-.03648
G1 X106.515 Y86.226 E-.03648
G1 X106.416 Y86.25 E-.03648
G1 X106.318 Y86.274 E-.03648
G1 X106.22 Y86.298 E-.03648
G1 X106.121 Y86.322 E-.03648
G1 X106.008 Y86.615 E-.11291
;WIPE_END
G1 Z.6 F9000
G1 X110.875 Y117.296 Z.6
G1 Z.2
G1 E1.2 F1800
;WIDTH:0.459999
G1 X110.151 Y117.289 E.0246
G1 X109.489 Y117.321 E.02253
G1 X108.236 Y117.455 E.04283
G1 X107.038 Y117.677 E.0414
G1 X107.038 Y117.47 E.00701
G1 X106.804 Y115.205 E.0774
G1 X107.747 Y115.081 E.03233
G1 X108.005 Y114.952 E.00982
G1 X108.251 Y114.714 E.01162
;WIDTH:0.500485
G1 X108.312 Y114.586 E.00529
;WIDTH:0.540971
G1 X108.373 Y114.458 E.00576
;WIDTH:0.581457
G1 X108.435 Y114.33 E.00623
;WIDTH:0.621943
G1 X108.496 Y114.202 E.0067
;WIDTH:0.662428
G1 X108.557 Y114.074 E.00716
G1 X108.643 Y114.186 E.00716
;WIDTH:0.621943
G1 X108.73 Y114.299 E.0067
;WIDTH:0.581457
G1 X108.816 Y114.412 E.00623
;WIDTH:0.540971
G1 X108.902 Y114.524 E.00576
;WIDTH:0.500485
G1 X108.989 Y114.637 E.00529
;WIDTH:0.459999
G1 X109.158 Y114.759 E.00708
G1 X109.534 Y114.888 E.01352
G1 X109.788 Y114.893 E.00866
G1 X110.507 Y114.818 E.02454
G1 X110.745 Y117.083 E.0774
G1 X110.854 Y117.262 E.00714
G1 X111.712 Y117.669 F9000
;WIDTH:0.607794
G1 F1800
G1 X111.598 Y117.683 E.0053
;WIDTH:0.564755
G1 X111.483 Y117.697 E.0049
;WIDTH:0.521716
G1 X111.369 Y117.711 E.0045
;WIDTH:0.478677
G1 X110.17 Y117.705 E.04256
;WIDTH:0.459999
G1 X109.532 Y117.735 E.0217
G1 X108.312 Y117.865 E.04173
G1 X107.106 Y118.089 E.04167
;WIDTH:0.498304
G1 X106.883 Y118.128 E.0084
;WIDTH:0.536609
G1 X106.66 Y118.168 E.00911
;WIDTH:0.574914
G1 X106.437 Y118.207 E.00982
;WIDTH:0.613218
G1 X106.214 Y118.247 E.01052
G1 X106.316 Y118.101 E.00828
;WIDTH:0.574914
G1 X106.418 Y117.954 E.00773
;WIDTH:0.536609
G1 X106.52 Y117.808 E.00717
;WIDTH:0.498304
G1 X106.621 Y117.662 E.00661
;WIDTH:0.459999
G1 X106.624 Y117.513 E.00504
G1 X106.346 Y114.834 E.09156
G1 X107.581 Y114.704 E.04222
G1 X107.832 Y114.558 E.00986
G1 X108.006 Y114.293 E.01077
G1 X108.035 Y114.028 E.00907
G1 X104.683 Y81.963 E1.09572
G1 X105.706 Y81.856 E.03494
G1 X106.04 Y85.04 E.10881
G1 X106.331 Y85.419 E.01625
G1 X106.495 Y85.488 E.00603
G1 X106.718 Y85.505 E.0076
G1 X113.958 Y84.748 E.24741
G1 X114.301 Y84.514 E.0141
G1 X114.427 Y84.179 E.01218
G1 X114.102 Y80.978 E.10933
G1 X115.184 Y80.865 E.037
G1 X115.68 Y85.603 E.16191
G1 X106.776 Y86.534 E.30427
G1 X106.463 Y86.692 E.01189
G1 X106.266 Y87.217 E.01904
G1 X106.538 Y89.821 E.089
G1 X106.83 Y90.201 E.01627
G1 X106.994 Y90.269 E.00603
G1 X107.216 Y90.286 E.00758
G1 X116.073 Y89.36 E.30264
G1 X116.596 Y94.363 E.17095
G1 X115.513 Y94.476 E.037
G1 X115.162 Y91.12 E.11468
G1 X114.948 Y90.711 E.01567
G1 X114.475 Y90.563 E.01687
G1 X111.829 Y90.839 E.09041
G1 X111.503 Y90.973 E.01198
G1 X111.363 Y91.131 E.00716
;WIDTH:0.504292
G1 X111.295 Y91.331 E.00794
;WIDTH:0.548584
G1 X111.228 Y91.531 E.00871
G1 X111.12 Y91.349 E.00871
;WIDTH:0.504292
G1 X111.013 Y91.168 E.00794
;WIDTH:0.459999
G1 X110.843 Y91.042 E.00716
G1 X110.496 Y90.979 E.01198
G1 X107.227 Y91.32 E.11173
G1 X106.963 Y91.474 E.01036
G1 X106.766 Y91.998 E.01903
G1 X109.058 Y113.921 E.74917
G1 X109.141 Y114.174 E.00907
G1 X109.265 Y114.324 E.00661
G1 X109.439 Y114.433 E.00697
G1 X109.745 Y114.478 E.01051
G1 X110.878 Y114.36 E.0387
G1 X111.16 Y117.039 E.09156
;WIDTH:0.478677
G1 X111.432 Y117.503 E.01911
;WIDTH:0.521716
G1 X111.526 Y117.559 E.00423
;WIDTH:0.564755
G1 X111.619 Y117.614 E.00461
;WIDTH:0.607794
G1 X111.678 Y117.649 E.00315
G1 E-.84 F2400
;WIPE_START
G1 F1800
G1 X111.598 Y117.683 E-.03132
G1 X111.483 Y117.697 E-.04148
G1 X111.369 Y117.711 E-.04148
G1 X110.686 Y117.708 E-.24571
;WIPE_END
G1 Z.6 F9000
G1 X103.547 Y119.276 Z.6
G1 Z.2
G1 E1.2 F1800
;WIDTH:0.646902
G1 X103.492 Y119.334 E.00394
;WIDTH:0.598873
G1 X103.437 Y119.392 E.00363
;WIDTH:0.550844
G1 X103.382 Y119.45 E.00332
;WIDTH:0.502815
G1 X103.326 Y119.508 E.003
;WIDTH:0.454786
G1 X103.271 Y119.566 E.00269
;WIDTH:0.406757
G1 X103.216 Y119.624 E.00238
;WIDTH:0.358728
G1 X102.697 Y119.913 E.01528
;WIDTH:0.367653
G1 X102.203 Y120.223 E.01543
;WIDTH:0.374684
G1 X101.728 Y120.553 E.01564
;WIDTH:0.385737
G1 X101.271 Y120.9 E.01603
;WIDTH:0.406829
G1 X100.635 Y121.442 E.02479
;WIDTH:0.417312
G1 X100.263 Y121.796 E.01566
;WIDTH:0.429146
G1 X99.909 Y122.167 E.01615
;WIDTH:0.439472
G1 X99.476 Y122.663 E.02125
;WIDTH:0.450262
G1 X99.143 Y123.095 E.01814
;WIDTH:0.465118
G1 X98.833 Y123.54 E.01864
;WIDTH:0.477414
G1 X98.538 Y124.02 E.01995
;WIDTH:0.503124
G1 X98.291 Y124.505 E.02039
;WIDTH:0.506736
G1 X97.963 Y125.193 E.02884
;WIDTH:0.536363
G1 X97.643 Y126.14 E.04016
;WIDTH:0.552164
G1 X97.43 Y127.12 E.04162
;WIDTH:0.562395
G1 X97.337 Y128.108 E.04202
G1 X97.351 Y128.975 E.0367
;WIDTH:0.565566
G1 X97.468 Y129.839 E.03713
G1 X97.685 Y130.725 E.03885
;WIDTH:0.551208
G1 X97.951 Y131.461 E.03241
;WIDTH:0.540312
G1 X98.4 Y132.38 E.04144
;WIDTH:0.52081
G1 X98.965 Y133.261 E.04077
;WIDTH:0.502616
G1 X99.297 Y133.676 E.0199
;WIDTH:0.497335
G1 X99.845 Y134.301 E.03078
;WIDTH:0.472478
G1 X100.233 Y134.68 E.01899
;WIDTH:0.459744
G1 X100.647 Y135.039 E.01861
;WIDTH:0.449032
G1 X101.076 Y135.384 E.01822
;WIDTH:0.433676
G1 X101.528 Y135.707 E.01768
;WIDTH:0.421545
G1 X101.996 Y136.008 E.01719
;WIDTH:0.409883
G1 X102.48 Y136.289 E.0167
;WIDTH:0.398783
G1 X102.976 Y136.547 E.01623
;WIDTH:0.388298
G1 X103.476 Y136.78 E.01555
;WIDTH:0.378468
G1 X103.979 Y136.987 E.01485
;WIDTH:0.363615
G1 X104.536 Y137.194 E.01555
;WIDTH:0.360515
G1 X105.634 Y137.521 E.02963
;WIDTH:0.346362
G1 X106.787 Y137.766 E.02915
;WIDTH:0.335652
G1 X107.969 Y137.92 E.02842
;WIDTH:0.327682
G1 X108.632 Y137.963 E.01544
;WIDTH:0.317348
G1 X109.85 Y137.975 E.02722
;WIDTH:0.319417
G1 X111.219 Y137.874 E.03093
;WIDTH:0.31714
G1 X112.264 Y137.723 E.02359
;WIDTH:0.325949
G1 X113.7 Y137.383 E.03403
;WIDTH:0.328584
G1 X114.625 Y137.097 E.02254
;WIDTH:0.338601
G1 X115.096 Y136.914 E.01219
;WIDTH:0.347257
G1 X116.005 Y136.527 E.0245
;WIDTH:0.349164
G1 X116.794 Y136.134 E.02198
;WIDTH:0.36087
G1 X117.305 Y135.844 E.01523
;WIDTH:0.365677
G1 X117.797 Y135.531 E.01533
;WIDTH:0.378283
G1 X118.273 Y135.203 E.01581
;WIDTH:0.388371
G1 X118.73 Y134.856 E.01615
;WIDTH:0.395725
G1 X119.166 Y134.491 E.01635
;WIDTH:0.411713
G1 X119.593 Y134.101 E.01737
;WIDTH:0.418711
G1 X119.981 Y133.708 E.01691
;WIDTH:0.442408
G1 X120.542 Y133.07 E.02766
;WIDTH:0.449242
G1 X120.865 Y132.648 E.0176
;WIDTH:0.469993
G1 X121.311 Y131.988 E.02774
;WIDTH:0.496346
G1 X121.688 Y131.311 E.02861
;WIDTH:0.514205
G1 X122.07 Y130.48 E.03511
;WIDTH:0.524429
G1 X122.283 Y129.884 E.02486
;WIDTH:0.542754
G1 X122.415 Y129.382 E.02115
;WIDTH:0.554971
G1 X122.587 Y128.495 E.03768
;WIDTH:0.562371
G1 X122.662 Y127.596 E.03819
;WIDTH:0.564192
G1 X122.64 Y126.693 E.03837
