; HEADER_BLOCK_START
; generated by OrcaSlicer 2.1.0-beta on 2024-05-31 at 11:47:17
; total layer number: 21
; filament_density: 1.24
; filament_diameter: 1.75
; max_z_height: 5.00
; HEADER_BLOCK_END

; external perimeters extrusion width = 0.42mm
; perimeters extrusion width = 0.45mm
; infill extrusion width = 0.45mm
; solid infill extrusion width = 0.42mm
; top infill extrusion width = 0.42mm
; first layer extrusion width = 0.46mm

; external perimeters extrusion width = 0.42mm
; perimeters extrusion width = 0.45mm
; infill extrusion width = 0.45mm
; solid infill extrusion width = 0.42mm
; top infill extrusion width = 0.42mm
; first layer extrusion width = 0.46mm

; external perimeters extrusion width = 0.42mm
; perimeters extrusion width = 0.45mm
; infill extrusion width = 0.45mm
; solid infill extrusion width = 0.42mm
; top infill extrusion width = 0.42mm
; first layer extrusion width = 0.46mm

; external perimeters extrusion width = 0.42mm
; perimeters extrusion width = 0.45mm
; infill extrusion width = 0.45mm
; solid infill extrusion width = 0.42mm
; top infill extrusion width = 0.42mm
; first layer extrusion width = 0.46mm

; external perimeters extrusion width = 0.42mm
; perimeters extrusion width = 0.45mm
; infill extrusion width = 0.45mm
; solid infill extrusion width = 0.42mm
; top infill extrusion width = 0.42mm
; first layer extrusion width = 0.46mm

; external perimeters extrusion width = 0.42mm
; perimeters extrusion width = 0.45mm
; infill extrusion width = 0.45mm
; solid infill extrusion width = 0.42mm
; top infill extrusion width = 0.42mm
; first layer extrusion width = 0.46mm

; EXECUTABLE_BLOCK_START
M201 X2500 Y2500 Z500 E5000
M203 X250 Y250 Z5 E40
M204 P2500 R500 T2500 ; sets acceleration (P, T) and retract acceleration (R), mm/sec^2
M205 X10.00 Y10.00 Z0.40 E5.00 ; sets the jerk limits, mm/sec
;TYPE:Custom
M220 S100 ;Reset Feedrate 
M221 S100 ;Reset Flowrate 
 
M104 S220 ;Set final nozzle temp 
M190 S55 ;Set and wait for bed temp to stabilize 
G28 ;Home 
G92 E0 ;Reset Extruder 
G1 Z2.0 F3000 ;Move Z Axis up 
G1 X-2.1 Y20 Z0.28 F5000.0 ;Move to start position 
M109 S220 ;Wait for nozzle temp to stabilize 
G1 X-2.1 Y145.0 Z0.28 F1500.0 E15 ;Draw the first line 
G1 X-2.4 Y145.0 Z0.28 F5000.0 ;Move to side a little 
G1 X-2.4 Y20 Z0.28 F1500.0 E30 ;Draw the second line 
G92 E0  ;Reset Extruder 
G1 E-1.0000 F1800 ;Retract a bit 
G1 Z2.0 F3000 ;Move Z Axis up 
G1 E0.0000 F1800
G90
G21
M83 ; use relative distances for extrusion
; filament start gcode
M106 S0
;LAYER_CHANGE
;Z:0.2
;HEIGHT:0.2
;BEFORE_LAYER_CHANGE
;0.2
G92 E0

G1 E-1.2 F2400
;_SET_FAN_SPEED_CHANGING_LAYER
M204 P500
; printing object Key.stl id:4725565580558521455 copy 0
M204 T500
G1 Z.4 F9000
G1 X93.066 Y58.74
G1 Z.4
G1 Z.2
G1 E1.2 F1800
;TYPE:Inner wall
;WIDTH:0.653724
G1 X93.096 Y58.789 E.00287
;WIDTH:0.610602
G1 X93.126 Y58.838 E.00267
;WIDTH:0.56748
G1 X93.157 Y58.887 E.00246
;WIDTH:0.524358
G1 X93.187 Y58.936 E.00226
;WIDTH:0.481236
G1 X93.218 Y58.985 E.00206
;WIDTH:0.438114
G1 X93.248 Y59.034 E.00186
;WIDTH:0.394992
G1 X93.278 Y59.083 E.00165
;WIDTH:0.398849
G1 X93.338 Y59.191 E.00358
;WIDTH:0.445828
G1 X93.397 Y59.299 E.00406
;WIDTH:0.492807
G1 X93.456 Y59.408 E.00453
;WIDTH:0.539786
G1 X93.516 Y59.516 E.005
;WIDTH:0.586765
G1 X93.575 Y59.624 E.00548
;WIDTH:0.633744
G1 X93.635 Y59.733 E.00595
G1 X93.715 Y59.737 E.00388
;WIDTH:0.590269
G1 X93.795 Y59.741 E.00359
;WIDTH:0.546794
G1 X93.876 Y59.745 E.00331
;WIDTH:0.503319
G1 X93.956 Y59.749 E.00302
;WIDTH:0.459844
G1 X94.037 Y59.753 E.00274
;WIDTH:0.416369
G1 X94.117 Y59.758 E.00245
;WIDTH:0.420054
G1 X94.181 Y59.778 E.00205
;WIDTH:0.467214
G1 X94.244 Y59.798 E.00231
;WIDTH:0.514374
G1 X94.308 Y59.819 E.00257
;WIDTH:0.561534
G1 X94.372 Y59.839 E.00282
;WIDTH:0.608694
G1 X94.435 Y59.86 E.00308
;WIDTH:0.655854
G1 X94.499 Y59.88 E.00334
G1 X94.441 Y59.913 E.00334
;WIDTH:0.608694
G1 X94.383 Y59.946 E.00308
;WIDTH:0.561534
G1 X94.325 Y59.98 E.00282
;WIDTH:0.514374
G1 X94.267 Y60.013 E.00257
;WIDTH:0.467214
G1 X94.209 Y60.046 E.00231
;WIDTH:0.420054
G1 X94.151 Y60.079 E.00205
;WIDTH:0.416369
G1 X94.073 Y60.1 E.00245
;WIDTH:0.459844
G1 X93.995 Y60.12 E.00274
;WIDTH:0.503319
G1 X93.917 Y60.141 E.00302
;WIDTH:0.546794
G1 X93.839 Y60.162 E.00331
;WIDTH:0.590269
G1 X93.762 Y60.182 E.00359
;WIDTH:0.633744
G1 X93.684 Y60.203 E.00388
;WIDTH:0.653724
G1 X93.318 Y61.15 E.05055
G1 X93.189 Y60.017 E.05677
;WIDTH:0.633744
G1 X93.154 Y59.872 E.00717
;WIDTH:0.586765
G1 X93.118 Y59.728 E.0066
;WIDTH:0.539786
G1 X93.082 Y59.583 E.00603
;WIDTH:0.492807
G1 X93.047 Y59.438 E.00546
;WIDTH:0.445828
G1 X93.011 Y59.294 E.00489
;WIDTH:0.398849
G1 X92.976 Y59.149 E.00432
;WIDTH:0.394992
G1 X92.988 Y59.09 E.00172
;WIDTH:0.438114
G1 X93.001 Y59.032 E.00193
;WIDTH:0.481236
G1 X93.014 Y58.974 E.00214
;WIDTH:0.524358
G1 X93.027 Y58.915 E.00235
;WIDTH:0.56748
G1 X93.04 Y58.857 E.00256
;WIDTH:0.610602
G1 X93.053 Y58.798 E.00277
;WIDTH:0.653724
G1 X93.057 Y58.779 E.00099
G1 E-.84 F2400
;WIPE_START
G1 F1800
G1 X93.096 Y58.789 E-.01448
G1 X93.126 Y58.838 E-.02074
G1 X93.157 Y58.887 E-.02074
G1 X93.187 Y58.936 E-.02074
G1 X93.218 Y58.985 E-.02074
G1 X93.248 Y59.034 E-.02074
G1 X93.278 Y59.083 E-.02074
G1 X93.338 Y59.191 E-.04448
G1 X93.397 Y59.299 E-.04448
G1 X93.456 Y59.408 E-.04448
G1 X93.516 Y59.516 E-.04448
G1 X93.573 Y59.621 E-.04313
;WIPE_END
G1 Z.6 F9000
G1 X97.506 Y59.566 Z.6
G1 Z.2
G1 E1.2 F1800
;WIDTH:0.655852
G1 X97.687 Y59.523 E.0093
;WIDTH:0.606218
G1 X97.868 Y59.48 E.00855
;WIDTH:0.556583
G1 X98.049 Y59.437 E.00779
;WIDTH:0.506948
G1 X98.23 Y59.394 E.00704
;WIDTH:0.457314
G1 X98.411 Y59.351 E.00629
;WIDTH:0.40768
G1 X98.593 Y59.308 E.00553
G1 X98.661 Y59.325 E.0021
;WIDTH:0.457316
G1 X98.73 Y59.342 E.00239
;WIDTH:0.506951
G1 X98.799 Y59.359 E.00267
;WIDTH:0.556587
G1 X98.867 Y59.375 E.00296
;WIDTH:0.606223
G1 X98.936 Y59.392 E.00325
;WIDTH:0.655858
G1 X99.005 Y59.409 E.00353
G1 X98.951 Y59.44 E.0031
;WIDTH:0.610703
G1 X98.897 Y59.471 E.00287
;WIDTH:0.565548
G1 X98.843 Y59.502 E.00264
;WIDTH:0.520393
G1 X98.789 Y59.533 E.00242
;WIDTH:0.475238
G1 X98.735 Y59.563 E.00219
;WIDTH:0.430082
G1 X98.681 Y59.594 E.00196
;WIDTH:0.416339
G1 X98.495 Y59.673 E.00615
;WIDTH:0.44775
G1 X98.309 Y59.752 E.00667
G1 X98.21 Y59.863 E.00489
G1 X98.091 Y59.775 E.00489
;WIDTH:0.489371
G1 X97.974 Y59.733 E.00452
;WIDTH:0.530991
G1 X97.857 Y59.691 E.00494
;WIDTH:0.572612
G1 X97.74 Y59.649 E.00537
;WIDTH:0.614232
G1 X97.623 Y59.608 E.00579
;WIDTH:0.655852
G1 X97.543 Y59.579 E.00421
G1 E-.84 F2400
;WIPE_START
G1 F1800
G1 X97.687 Y59.523 E-.0555
G1 X97.868 Y59.48 E-.06702
G1 X98.049 Y59.437 E-.06702
G1 X98.23 Y59.394 E-.06702
G1 X98.411 Y59.351 E-.06702
G1 X98.51 Y59.328 E-.03644
;WIPE_END
G1 Z.6 F9000
G1 X101.484 Y59.15 Z.6
G1 Z.2
G1 E1.2 F1800
;WIDTH:0.655854
G1 X102.101 Y59.062 E.03114
;WIDTH:0.609182
G1 X102.718 Y58.974 E.02876
;WIDTH:0.562509
G1 X102.745 Y59.232 E.011
G1 X102.792 Y59.461 E.00987
;WIDTH:0.516553
G1 X102.839 Y59.689 E.00899
;WIDTH:0.470596
G1 X102.886 Y59.917 E.00812
;WIDTH:0.42464
G1 X102.933 Y60.145 E.00725
;WIDTH:0.378692
G1 X103.245 Y63.127 E.08203
G1 X102.911 Y63.162 E.00919
G1 X102.599 Y60.18 E.08203
;WIDTH:0.42464
G1 X102.529 Y59.999 E.00604
;WIDTH:0.470596
G1 X102.458 Y59.818 E.00677
;WIDTH:0.516553
G1 X102.388 Y59.637 E.0075
;WIDTH:0.562509
G1 X102.317 Y59.456 E.00823
;WIDTH:0.609182
G1 X101.901 Y59.303 E.02048
;WIDTH:0.655854
G1 X101.522 Y59.164 E.02017
G1 E-.84 F2400
;WIPE_START
G1 F1800
G1 X102.101 Y59.062 E-.21185
G1 X102.509 Y59.004 E-.14815
;WIPE_END
G1 Z.6 F9000
G1 X93.813 Y55.273 Z.6
G1 Z.2
G1 E1.2 F1800
;WIDTH:0.349302
G1 X93.775 Y55.277 E.00096
;WIDTH:0.396747
G1 X93.676 Y55.301 E.00292
;WIDTH:0.444192
G1 X93.578 Y55.325 E.00331
;WIDTH:0.491637
G1 X93.479 Y55.349 E.00371
;WIDTH:0.539082
G1 X93.381 Y55.373 E.0041
;WIDTH:0.586527
G1 X93.283 Y55.398 E.00449
;WIDTH:0.633971
G1 X93.184 Y55.422 E.00488
;WIDTH:0.653724
G1 X92.818 Y56.369 E.05057
G1 X92.689 Y55.236 E.0568
;WIDTH:0.633971
G1 X92.653 Y55.088 E.0073
;WIDTH:0.587263
G1 X92.616 Y54.941 E.00672
;WIDTH:0.540554
G1 X92.58 Y54.794 E.00615
;WIDTH:0.493845
G1 X92.543 Y54.647 E.00557
;WIDTH:0.447137
G1 X92.507 Y54.5 E.00499
;WIDTH:0.400428
G1 X92.47 Y54.353 E.00442
;WIDTH:0.396774
G1 X92.484 Y54.294 E.00173
;WIDTH:0.439829
G1 X92.497 Y54.236 E.00195
;WIDTH:0.482884
G1 X92.511 Y54.177 E.00216
;WIDTH:0.525938
G1 X92.524 Y54.118 E.00237
;WIDTH:0.568993
G1 X92.538 Y54.06 E.00258
;WIDTH:0.612048
G1 X92.551 Y54.001 E.00279
;WIDTH:0.655102
G1 X92.565 Y53.943 E.003
G1 X92.595 Y53.992 E.00288
;WIDTH:0.612048
G1 X92.625 Y54.041 E.00268
;WIDTH:0.568993
G1 X92.655 Y54.091 E.00248
;WIDTH:0.525938
G1 X92.685 Y54.14 E.00227
;WIDTH:0.482884
G1 X92.715 Y54.19 E.00207
;WIDTH:0.439829
G1 X92.745 Y54.239 E.00187
;WIDTH:0.396774
G1 X92.775 Y54.288 E.00167
;WIDTH:0.400428
G1 X92.835 Y54.399 E.00366
;WIDTH:0.447137
G1 X92.895 Y54.509 E.00414
;WIDTH:0.493845
G1 X92.955 Y54.62 E.00462
;WIDTH:0.540554
G1 X93.015 Y54.73 E.0051
;WIDTH:0.587263
G1 X93.075 Y54.841 E.00558
;WIDTH:0.633971
G1 X93.135 Y54.951 E.00606
G1 X93.249 Y54.953 E.00548
;WIDTH:0.586527
G1 X93.363 Y54.956 E.00504
;WIDTH:0.539082
G1 X93.477 Y54.958 E.0046
;WIDTH:0.491637
G1 X93.591 Y54.96 E.00416
;WIDTH:0.444192
G1 X93.704 Y54.962 E.00372
;WIDTH:0.396747
G1 X93.818 Y54.964 E.00328
;WIDTH:0.349302
G1 X101.11 Y54.202 E.18303
;WIDTH:0.391934
G1 X101.235 Y54.141 E.00396
;WIDTH:0.434566
G1 X101.36 Y54.08 E.00445
;WIDTH:0.477198
G1 X101.486 Y54.019 E.00493
;WIDTH:0.51983
G1 X101.611 Y53.958 E.00541
;WIDTH:0.562461
G1 X101.736 Y53.897 E.0059
G1 X101.77 Y53.749 E.00643
;WIDTH:0.518733
G1 X101.803 Y53.601 E.00589
;WIDTH:0.475005
G1 X101.836 Y53.453 E.00535
;WIDTH:0.431277
G1 X101.87 Y53.304 E.00481
;WIDTH:0.387548
G1 X101.862 Y53.13 E.00489
;WIDTH:0.378692
G1 X101.578 Y50.413 E.07476
G1 X101.912 Y50.378 E.00919
G1 X102.212 Y53.248 E.07897
;WIDTH:0.424628
G1 X102.216 Y53.508 E.00807
;WIDTH:0.470572
G1 X102.22 Y53.767 E.00904
;WIDTH:0.516517
G1 X102.224 Y54.026 E.01001
;WIDTH:0.562461
G1 X102.228 Y54.286 E.01098
G1 X101.97 Y54.313 E.011
G1 X101.776 Y54.354 E.0084
;WIDTH:0.51983
G1 X101.582 Y54.396 E.00771
;WIDTH:0.477198
G1 X101.388 Y54.438 E.00702
;WIDTH:0.434566
G1 X101.194 Y54.48 E.00633
;WIDTH:0.391934
G1 X101 Y54.521 E.00564
;WIDTH:0.349302
G1 X93.852 Y55.269 E.17942
G1 E-.84 F2400
;WIPE_START
G1 F1800
G1 X93.775 Y55.277 E-.0282
G1 X93.676 Y55.301 E-.03648
G1 X93.578 Y55.325 E-.03648
G1 X93.479 Y55.349 E-.03648
G1 X93.381 Y55.373 E-.03648
G1 X93.283 Y55.398 E-.03648
G1 X93.184 Y55.422 E-.03648
G1 X93.071 Y55.714 E-.11291
;WIPE_END
G1 Z.6 F9000
G1 X97.938 Y86.396 Z.6
G1 Z.2
G1 E1.2 F1800
;WIDTH:0.459999
G1 X97.214 Y86.388 E.0246
G1 X96.552 Y86.42 E.02253
G1 X95.299 Y86.554 E.04283
G1 X94.101 Y86.776 E.0414
G1 X94.101 Y86.57 E.00701
G1 X93.867 Y84.305 E.0774
G1 X94.81 Y84.18 E.03233
G1 X95.068 Y84.051 E.00982
G1 X95.314 Y83.813 E.01162
;WIDTH:0.500485
G1 X95.375 Y83.685 E.00529
;WIDTH:0.540971
G1 X95.436 Y83.557 E.00576
;WIDTH:0.581457
G1 X95.498 Y83.429 E.00623
;WIDTH:0.621943
G1 X95.559 Y83.301 E.0067
;WIDTH:0.662428
G1 X95.62 Y83.173 E.00716
G1 X95.706 Y83.286 E.00716
;WIDTH:0.621943
G1 X95.793 Y83.398 E.0067
;WIDTH:0.581457
G1 X95.879 Y83.511 E.00623
;WIDTH:0.540971
G1 X95.965 Y83.623 E.00576
;WIDTH:0.500485
G1 X96.052 Y83.736 E.00529
;WIDTH:0.459999
G1 X96.221 Y83.858 E.00708
G1 X96.597 Y83.988 E.01352
G1 X96.851 Y83.992 E.00866
G1 X97.569 Y83.917 E.02454
G1 X97.808 Y86.182 E.0774
G1 X97.917 Y86.362 E.00714
G1 X98.775 Y86.769 F9000
;WIDTH:0.607794
G1 F1800
G1 X98.661 Y86.783 E.0053
;WIDTH:0.564755
G1 X98.546 Y86.796 E.0049
;WIDTH:0.521716
G1 X98.432 Y86.81 E.0045
;WIDTH:0.478677
G1 X97.233 Y86.805 E.04256
;WIDTH:0.459999
G1 X96.595 Y86.835 E.0217
G1 X95.375 Y86.964 E.04173
G1 X94.169 Y87.188 E.04167
;WIDTH:0.498304
G1 X93.946 Y87.228 E.0084
;WIDTH:0.536609
G1 X93.723 Y87.267 E.00911
;WIDTH:0.574914
G1 X93.5 Y87.307 E.00982
;WIDTH:0.613218
G1 X93.277 Y87.346 E.01052
G1 X93.379 Y87.2 E.00828
;WIDTH:0.574914
G1 X93.481 Y87.054 E.00773
;WIDTH:0.536609
G1 X93.582 Y86.907 E.00717
;WIDTH:0.498304
G1 X93.684 Y86.761 E.00661
;WIDTH:0.459999
G1 X93.687 Y86.613 E.00504
G1 X93.409 Y83.933 E.09156
G1 X94.644 Y83.804 E.04222
G1 X94.895 Y83.657 E.00986
G1 X95.069 Y83.393 E.01077
G1 X95.098 Y83.127 E.00907
G1 X91.746 Y51.062 E1.09572
G1 X92.769 Y50.955 E.03494
G1 X93.103 Y54.139 E.10881
G1 X93.394 Y54.519 E.01625
G1 X93.558 Y54.587 E.00603
G1 X93.781 Y54.604 E.0076
G1 X101.021 Y53.847 E.24741
G1 X101.364 Y53.613 E.0141
G1 X101.49 Y53.278 E.01218
G1 X101.165 Y50.078 E.10933
G1 X102.247 Y49.965 E.037
G1 X102.743 Y54.703 E.16191
G1 X93.839 Y55.634 E.30427
G1 X93.526 Y55.792 E.01189
G1 X93.329 Y56.316 E.01904
G1 X93.601 Y58.92 E.089
G1 X93.893 Y59.3 E.01627
G1 X94.057 Y59.369 E.00603
G1 X94.279 Y59.385 E.00758
G1 X103.135 Y58.459 E.30264
G1 X103.658 Y63.462 E.17095
G1 X102.576 Y63.575 E.037
G1 X102.225 Y60.219 E.11468
G1 X102.011 Y59.811 E.01567
G1 X101.538 Y59.662 E.01687
G1 X98.892 Y59.939 E.09041
G1 X98.566 Y60.073 E.01198
G1 X98.426 Y60.23 E.00716
;WIDTH:0.504292
G1 X98.358 Y60.43 E.00794
;WIDTH:0.548584
G1 X98.291 Y60.631 E.00871
G1 X98.183 Y60.449 E.00871
;WIDTH:0.504292
G1 X98.076 Y60.267 E.00794
;WIDTH:0.459999
G1 X97.906 Y60.142 E.00716
G1 X97.559 Y60.078 E.01198
G1 X94.29 Y60.42 E.11173
G1 X94.026 Y60.573 E.01036
G1 X93.829 Y61.097 E.01903
G1 X96.121 Y83.021 E.74917
G1 X96.204 Y83.274 E.00907
G1 X96.328 Y83.424 E.00661
G1 X96.502 Y83.533 E.00697
G1 X96.808 Y83.578 E.01051
G1 X97.941 Y83.459 E.0387
G1 X98.223 Y86.138 E.09156
;WIDTH:0.478677
G1 X98.495 Y86.603 E.01911
;WIDTH:0.521716
G1 X98.589 Y86.658 E.00423
;WIDTH:0.564755
G1 X98.682 Y86.713 E.00461
;WIDTH:0.607794
G1 X98.741 Y86.748 E.00315
G1 E-.84 F2400
;WIPE_START
G1 F1800
G1 X98.661 Y86.783 E-.03132
G1 X98.546 Y86.796 E-.04148
G1 X98.432 Y86.81 E-.04148
G1 X97.749 Y86.807 E-.24571
;WIPE_END
G1 Z.6 F9000
G1 X90.61 Y88.375 Z.6
G1 Z.2
G1 E1.2 F1800
;WIDTH:0.646902
G1 X90.555 Y88.433 E.00394
;WIDTH:0.598873
G1 X90.5 Y88.491 E.00363
;WIDTH:0.550844
G1 X90.445 Y88.549 E.00332
;WIDTH:0.502815
G1 X90.389 Y88.607 E.003
;WIDTH:0.454786
G1 X90.334 Y88.665 E.00269
;WIDTH:0.406757
G1 X90.279 Y88.723 E.00238
;WIDTH:0.358728
G1 X89.76 Y89.012 E.01528
;WIDTH:0.367653
G1 X89.266 Y89.322 E.01543
;WIDTH:0.374684
G1 X88.791 Y89.652 E.01564
;WIDTH:0.385737
G1 X88.334 Y89.999 E.01603
;WIDTH:0.406829
G1 X87.698 Y90.542 E.02479
;WIDTH:0.417312
G1 X87.326 Y90.896 E.01566
;WIDTH:0.429146
G1 X86.972 Y91.267 E.01615
;WIDTH:0.439472
G1 X86.539 Y91.762 E.02125
;WIDTH:0.450262
G1 X86.206 Y92.195 E.01814
;WIDTH:0.465118
G1 X85.896 Y92.639 E.01864
;WIDTH:0.477414
G1 X85.601 Y93.12 E.01995
;WIDTH:0.503124
G1 X85.354 Y93.604 E.02039
;WIDTH:0.506736
G1 X85.026 Y94.293 E.02884
;WIDTH:0.536363
G1 X84.706 Y95.239 E.04016
;WIDTH:0.552164
G1 X84.493 Y96.219 E.04162
;WIDTH:0.562395
G1 X84.4 Y97.208 E.04202
G1 X84.414 Y98.075 E.0367
;WIDTH:0.565566
G1 X84.531 Y98.939 E.03713
G1 X84.748 Y99.825 E.03885
;WIDTH:0.551208
G1 X85.014 Y100.56 E.03241
;WIDTH:0.540312
G1 X85.463 Y101.479 E.04144
;WIDTH:0.52081
G1 X86.028 Y102.361 E.04077
;WIDTH:0.502616
G1 X86.36 Y102.775 E.0199
;WIDTH:0.497335
G1 X86.908 Y103.4 E.03078
;WIDTH:0.472478
G1 X87.296 Y103.779 E.01899
;WIDTH:0.459744
G1 X87.71 Y104.139 E.01861
;WIDTH:0.449032
G1 X88.139 Y104.484 E.01822
;WIDTH:0.433676
G1 X88.591 Y104.806 E.01768
;WIDTH:0.421545
G1 X89.059 Y105.108 E.01719
;WIDTH:0.409883
G1 X89.542 Y105.388 E.0167
;WIDTH:0.398783
G1 X90.039 Y105.646 E.01623
;WIDTH:0.388298
G1 X90.539 Y105.88 E.01555
;WIDTH:0.378468
G1 X91.042 Y106.086 E.01485
;WIDTH:0.363615
G1 X91.599 Y106.294 E.01555
;WIDTH:0.360515
G1 X92.697 Y106.621 E.02963
;WIDTH:0.346362
G1 X93.85 Y106.865 E.02915
;WIDTH:0.335652
G1 X95.032 Y107.019 E.02842
;WIDTH:0.327682
G1 X95.695 Y107.063 E.01544
;WIDTH:0.317348
G1 X96.913 Y107.074 E.02722
;WIDTH:0.319417
G1 X98.282 Y106.974 E.03093
;WIDTH:0.31714
G1 X99.327 Y106.822 E.02359
;WIDTH:0.325949
G1 X100.763 Y106.483 E.03403
;WIDTH:0.328584
G1 X101.688 Y106.196 E.02254
;WIDTH:0.338601
G1 X102.159 Y106.013 E.01219
;WIDTH:0.347257
