;FLAVOR:Marlin
;TIME:650
;Filament used: 0.469253m
;Layer height: 0.2
;MINX:78.27
;MINY:87.717
;MINZ:0.2
;MAXX:141.731
;MAXY:132.279
;MAXZ:3
;TARGET_MACHINE.NAME:Creality Ender-3 V3 SE
;Generated with Cura_SteamEngine 5.6.0
M104 S228
M105
M109 S228
M82 ;absolute extrusion mode
M220 S100 ;Reset Feedrate
M221 S100 ;Reset Flowrate

G28 ;Home

M420 S1; Enable mesh leveling

G92 E0 ;Reset Extruder
G1 Z2.0 F3000 ;Move Z Axis up
G1 X10.1 Y20 Z0.28 F5000.0 ;Move to start position
M109 S[material_print_temperature_layer_0]
G1 X10.1 Y145.0 Z0.28 F1500.0 E15 ;Draw the first line
G1 X10.4 Y145.0 Z0.28 F5000.0 ;Move to side a little
G1 X10.4 Y20 Z0.28 F1500.0 E30 ;Draw the second line
G92 E0  ;Reset Extruder
G1 E-1.0000 F1800 ;Retract a bit
G1 Z2.0 F3000 ;Move Z Axis up
G1 E0.0000 F1800 

G92 E0
G92 E0
G1 F2400 E-0.8
;LAYER_COUNT:15
;LAYER:0
M107
G0 F9000 X88.059 Y93.185 Z0.2
;TYPE:SKIRT
G1 F2400 E0
G1 F1800 X88.654 Y92.637 E0.0269
G1 X89.213 Y92.157 E0.05141
G1 X89.903 Y91.629 E0.08031
G1 X90.49 Y91.215 E0.1042
G1 X91.059 Y90.837 E0.12692
G1 X91.996 Y90.276 E0.16324
G1 X92.792 Y89.852 E0.19324
G1 X93.679 Y89.437 E0.22581
G1 X94.413 Y89.13 E0.25227
G1 X95.218 Y88.831 E0.28084
G1 X95.763 Y88.647 E0.29997
G1 X96.647 Y88.387 E0.33061
G1 X97.277 Y88.235 E0.35217
G1 X97.882 Y88.11 E0.37272
G1 X98.382 Y88.018 E0.38963
G1 X99.002 Y87.922 E0.41049
G1 X99.709 Y87.83 E0.43421
G1 X100.598 Y87.751 E0.46389
G1 X101.318 Y87.718 E0.48786
G1 X102.332 Y87.717 E0.52159
G1 X105.544 Y87.869 E0.62854
G1 X107.982 Y87.912 E0.70964
G1 X111.429 Y87.865 E0.8243
G1 X115.516 Y87.866 E0.96023
G1 X117.361 Y87.892 E1.0216
G1 X130.182 Y87.9 E1.44803
G1 X130.915 Y87.912 E1.47242
G1 X131.887 Y87.971 E1.5048
G1 X132.85 Y88.117 E1.5372
G1 X133.797 Y88.348 E1.56962
G1 X134.685 Y88.648 E1.6008
G1 X135.577 Y89.038 E1.63318
G1 X136.46 Y89.525 E1.66671
G1 X137.211 Y90.027 E1.69676
G1 X138.026 Y90.685 E1.7316
G1 X138.724 Y91.363 E1.76396
G1 X139.36 Y92.1 E1.79634
G1 X139.93 Y92.89 E1.82874
G1 X140.392 Y93.666 E1.85878
G1 X140.846 Y94.608 E1.89356
G1 X141.175 Y95.486 E1.92475
G1 X141.444 Y96.458 E1.95829
G1 X141.621 Y97.424 E1.99095
G1 X141.716 Y98.543 E2.02831
G1 X141.731 Y99.217 E2.05073
G1 X141.73 Y102.952 E2.17496
G1 X141.718 Y103.72 E2.2005
G1 X141.66 Y104.693 E2.23292
G1 X141.514 Y105.656 E2.26532
G1 X141.284 Y106.602 E2.2977
G1 X140.974 Y107.52 E2.32992
G1 X140.665 Y108.239 E2.35595
G1 X140.064 Y109.506 E2.40259
G1 X138.993 Y111.874 E2.48904
G1 X137.992 Y114.263 E2.57519
G1 X137.102 Y116.563 E2.65721
G1 X136.26 Y118.941 E2.74112
G1 X135.493 Y121.322 E2.82432
G1 X134.614 Y124.355 E2.92935
G1 X134.299 Y125.277 E2.96175
G1 X133.903 Y126.167 E2.99415
G1 X133.431 Y127.018 E3.02652
G1 X132.885 Y127.825 E3.05893
G1 X132.317 Y128.527 E3.08896
G1 X131.591 Y129.277 E3.12368
G1 X130.881 Y129.891 E3.1549
G1 X130.061 Y130.479 E3.18846
G1 X129.222 Y130.975 E3.22088
G1 X128.375 Y131.379 E3.25209
G1 X127.429 Y131.732 E3.28567
G1 X126.525 Y131.981 E3.31686
G1 X125.524 Y132.164 E3.3507
G1 X124.393 Y132.257 E3.38845
G1 X123.736 Y132.272 E3.4103
G1 X119.655 Y132.271 E3.54604
G1 X118.632 Y132.253 E3.58007
G1 X116.792 Y132.163 E3.64134
G1 X114.246 Y132.09 E3.72606
G1 X112.938 Y132.081 E3.76956
G1 X108.46 Y132.081 E3.9185
G1 X105.874 Y132.118 E4.00452
G1 X102.566 Y132.268 E4.11466
G1 X102.05 Y132.279 E4.13182
G1 X101.363 Y132.277 E4.15467
G1 X100.43 Y132.231 E4.18574
G1 X99.498 Y132.141 E4.21689
G1 X98.629 Y132.023 E4.24605
G1 X97.78 Y131.869 E4.27475
G1 X96.875 Y131.665 E4.30561
G1 X96.075 Y131.448 E4.33318
G1 X95.441 Y131.255 E4.35522
G1 X95.141 Y131.152 E4.36577
G1 X94.436 Y130.884 E4.39086
G1 X93.557 Y130.514 E4.42258
G1 X92.784 Y130.152 E4.45096
G1 X91.92 Y129.692 E4.48352
G1 X91.171 Y129.244 E4.51255
G1 X90.402 Y128.737 E4.54318
G1 X89.706 Y128.231 E4.5718
G1 X88.991 Y127.659 E4.60226
G1 X87.117 Y126.049 E4.68443
G1 X84.24 Y123.711 E4.80773
G1 X83.294 Y122.964 E4.84783
G1 X82.746 Y122.501 E4.87169
G1 X82.37 Y122.159 E4.88859
G1 X81.679 Y121.472 E4.921
G1 X81.096 Y120.782 E4.95104
G1 X80.553 Y120.03 E4.9819
G1 X80.033 Y119.207 E5.01427
G1 X79.59 Y118.351 E5.04633
G1 X79.235 Y117.534 E5.07596
G1 X79.085 Y117.148 E5.08973
G1 X78.794 Y116.293 E5.11977
G1 X78.492 Y114.974 E5.16478
G1 X78.424 Y114.551 E5.17903
G1 X78.311 Y113.596 E5.21101
G1 X78.283 Y112.96 E5.23219
G1 X78.27 Y111.975 E5.26495
G1 X78.279 Y108.482 E5.38113
G1 X78.37 Y107.124 E5.4264
G1 X78.449 Y106.533 E5.44623
G1 X78.622 Y105.575 E5.47861
G1 X78.869 Y104.664 E5.51
G1 X79.32 Y103.484 E5.55202
G1 X79.497 Y103.091 E5.56635
G1 X80.158 Y101.845 E5.61327
G1 X80.357 Y101.523 E5.62586
G1 X80.866 Y100.776 E5.65592
G1 X81.276 Y100.258 E5.67789
G1 X81.54 Y99.946 E5.69149
G1 X82.23 Y99.201 E5.72526
G1 X83.36 Y98.093 E5.7779
G1 X85.177 Y96.24 E5.86421
G1 X86.218 Y95.129 E5.91485
G1 X87.446 Y93.796 E5.97513
G1 X88.059 Y93.185 E6.00392
G0 F9000 X88.33 Y93.479
G1 F1800 X88.915 Y92.94 E6.03038
G1 X89.456 Y92.475 E6.0541
G1 X90.134 Y91.956 E6.0825
G1 X90.712 Y91.548 E6.10603
G1 X91.265 Y91.18 E6.12813
G1 X92.184 Y90.629 E6.16377
G1 X92.962 Y90.214 E6.19309
G1 X93.833 Y89.806 E6.22509
G1 X94.552 Y89.505 E6.25101
G1 X95.346 Y89.21 E6.27918
G1 X95.876 Y89.031 E6.29779
G1 X96.741 Y88.776 E6.32778
G1 X97.358 Y88.627 E6.34889
G1 X97.955 Y88.503 E6.36917
G1 X98.443 Y88.413 E6.38568
G1 X99.054 Y88.319 E6.40624
G1 X99.761 Y88.227 E6.42995
G1 X100.617 Y88.151 E6.45854
G1 X101.318 Y88.118 E6.48188
G1 X102.313 Y88.117 E6.51497
G1 X105.525 Y88.269 E6.62192
G1 X107.98 Y88.312 E6.70359
G1 X111.429 Y88.265 E6.81831
G1 X115.51 Y88.266 E6.95405
G1 X117.355 Y88.292 E7.01542
G1 X130.176 Y88.3 E7.44185
G1 X130.891 Y88.311 E7.46563
G1 X131.828 Y88.367 E7.49685
G1 X132.756 Y88.506 E7.52806
G1 X133.669 Y88.727 E7.5593
G1 X134.525 Y89.015 E7.58934
G1 X135.417 Y89.405 E7.62172
G1 X136.238 Y89.858 E7.65291
G1 X136.989 Y90.36 E7.68296
G1 X137.748 Y90.972 E7.71538
G1 X138.422 Y91.625 E7.7466
G1 X139.036 Y92.334 E7.77779
G1 X139.586 Y93.095 E7.80902
G1 X140.048 Y93.871 E7.83906
G1 X140.471 Y94.748 E7.87144
G1 X140.8 Y95.626 E7.90263
G1 X141.051 Y96.531 E7.93387
G1 X141.222 Y97.458 E7.96522
G1 X141.317 Y98.577 E8.00257
G1 X141.331 Y99.217 E8.02386
G1 X141.33 Y102.946 E8.14789
G1 X141.319 Y103.697 E8.17287
G1 X141.264 Y104.634 E8.20409
G1 X141.125 Y105.562 E8.2353
G1 X140.905 Y106.474 E8.2665
G1 X140.606 Y107.362 E8.29767
G1 X140.303 Y108.068 E8.32322
G1 X139.703 Y109.335 E8.36985
G1 X138.624 Y111.719 E8.45688
G1 X137.623 Y114.108 E8.54303
G1 X136.729 Y116.419 E8.62545
G1 X135.883 Y118.807 E8.70971
G1 X135.112 Y121.199 E8.7933
G1 X134.235 Y124.226 E8.89812
G1 X133.933 Y125.115 E8.92935
G1 X133.553 Y125.973 E8.96056
G1 X133.099 Y126.794 E8.99176
G1 X132.574 Y127.573 E9.023
G1 X132.006 Y128.275 E9.05304
G1 X131.329 Y128.974 E9.0854
G1 X130.619 Y129.588 E9.11662
G1 X129.857 Y130.135 E9.14782
G1 X129.049 Y130.614 E9.17906
G1 X128.235 Y131.004 E9.20908
G1 X127.323 Y131.346 E9.24148
G1 X126.419 Y131.595 E9.27267
G1 X125.491 Y131.765 E9.30405
G1 X124.384 Y131.857 E9.34099
G1 X123.736 Y131.872 E9.36255
G1 X119.662 Y131.871 E9.49805
G1 X118.652 Y131.853 E9.53165
G1 X116.812 Y131.763 E9.59292
G1 X114.257 Y131.69 E9.67794
G1 X112.941 Y131.681 E9.72171
G1 X108.454 Y131.681 E9.87095
G1 X105.856 Y131.718 E9.95736
G1 X102.557 Y131.868 E10.0672
G1 X102.051 Y131.879 E10.08404
G1 X101.383 Y131.877 E10.10625
G1 X100.45 Y131.831 E10.13732
G1 X99.552 Y131.745 E10.16733
G1 X98.7 Y131.629 E10.19593
G1 X97.868 Y131.479 E10.22405
G1 X96.98 Y131.279 E10.25432
G1 X96.191 Y131.065 E10.28151
G1 X95.57 Y130.876 E10.3031
G1 X95.283 Y130.778 E10.31319
G1 X94.591 Y130.515 E10.33781
G1 X93.712 Y130.145 E10.36953
G1 X92.972 Y129.799 E10.3967
G1 X92.125 Y129.349 E10.4286
G1 X91.391 Y128.91 E10.45705
G1 X90.637 Y128.413 E10.48708
G1 X89.956 Y127.919 E10.51507
G1 X89.252 Y127.356 E10.54505
G1 X87.378 Y125.746 E10.62722
G1 X84.488 Y123.397 E10.75109
G1 X83.552 Y122.658 E10.79075
G1 X83.004 Y122.195 E10.81461
G1 X82.652 Y121.875 E10.83044
G1 X81.985 Y121.214 E10.86167
G1 X81.402 Y120.524 E10.89171
G1 X80.891 Y119.816 E10.92076
G1 X80.388 Y119.023 E10.95199
G1 X79.957 Y118.192 E10.98312
G1 X79.608 Y117.389 E11.01225
G1 X79.464 Y117.019 E11.02545
G1 X79.173 Y116.164 E11.05549
G1 X78.887 Y114.91 E11.09827
G1 X78.821 Y114.504 E11.11195
G1 X78.711 Y113.578 E11.14297
G1 X78.683 Y112.955 E11.16371
G1 X78.67 Y111.976 E11.19627
G1 X78.678 Y108.509 E11.31159
G1 X78.767 Y107.177 E11.35599
G1 X78.843 Y106.603 E11.37525
G1 X79.008 Y105.68 E11.40643
G1 X79.255 Y104.769 E11.43782
G1 X79.685 Y103.648 E11.47776
G1 X79.862 Y103.255 E11.49209
G1 X80.499 Y102.055 E11.53728
G1 X80.688 Y101.748 E11.54927
G1 X81.197 Y101.001 E11.57934
G1 X81.582 Y100.516 E11.59993
G1 X81.833 Y100.218 E11.61289
G1 X82.51 Y99.487 E11.64603
G1 X83.64 Y98.379 E11.69867
G1 X85.463 Y96.52 E11.78527
G1 X86.51 Y95.403 E11.83619
G1 X87.729 Y94.079 E11.89604
G1 X88.33 Y93.479 E11.92429
G0 F9000 X88.601 Y93.773
G1 F1800 X89.176 Y93.243 E11.9503
G1 X89.699 Y92.793 E11.97325
G1 X90.365 Y92.283 E12.00115
G1 X90.943 Y91.875 E12.02468
G1 X91.471 Y91.523 E12.04579
G1 X92.372 Y90.982 E12.08074
G1 X93.132 Y90.576 E12.1094
G1 X93.988 Y90.175 E12.14084
G1 X94.692 Y89.88 E12.16623
G1 X95.474 Y89.589 E12.19398
G1 X95.989 Y89.415 E12.21206
G1 X96.835 Y89.165 E12.2414
G1 X97.44 Y89.019 E12.2621
G1 X98.028 Y88.896 E12.28208
G1 X98.503 Y88.808 E12.29815
G1 X99.106 Y88.716 E12.31843
G1 X99.813 Y88.624 E12.34215
G1 X100.636 Y88.551 E12.36963
G1 X101.318 Y88.518 E12.39234
G1 X102.294 Y88.517 E12.4248
G1 X105.506 Y88.669 E12.53175
G1 X107.978 Y88.712 E12.61398
G1 X111.429 Y88.665 E12.72877
G1 X115.504 Y88.666 E12.86431
G1 X117.349 Y88.692 E12.92568
G1 X130.17 Y88.7 E13.35211
G1 X130.868 Y88.71 E13.37533
G1 X131.77 Y88.763 E13.40538
G1 X132.663 Y88.895 E13.4354
G1 X133.541 Y89.106 E13.46544
G1 X134.397 Y89.394 E13.49548
G1 X135.224 Y89.756 E13.5255
G1 X136.016 Y90.191 E13.55556
G1 X136.767 Y90.693 E13.5856
G1 X137.47 Y91.26 E13.61564
G1 X138.12 Y91.887 E13.64568
G1 X138.712 Y92.569 E13.67571
G1 X139.242 Y93.3 E13.70575
G1 X139.704 Y94.076 E13.73578
G1 X140.097 Y94.889 E13.76582
G1 X140.415 Y95.734 E13.79585
G1 X140.658 Y96.604 E13.82589
G1 X140.823 Y97.492 E13.85593
G1 X140.918 Y98.611 E13.89328
G1 X140.931 Y99.217 E13.91344
G1 X140.93 Y102.941 E14.0373
G1 X140.92 Y103.674 E14.06169
G1 X140.868 Y104.576 E14.09174
G1 X140.736 Y105.469 E14.12176
G1 X140.526 Y106.347 E14.15179
G1 X140.238 Y107.204 E14.18186
G1 X139.941 Y107.897 E14.20693
G1 X139.342 Y109.164 E14.25355
G1 X138.255 Y111.564 E14.34118
G1 X137.254 Y113.953 E14.42733
G1 X136.356 Y116.275 E14.51013
G1 X135.506 Y118.673 E14.59475
G1 X134.731 Y121.076 E14.67873
G1 X133.856 Y124.098 E14.78337
G1 X133.567 Y124.954 E14.81342
G1 X133.203 Y125.78 E14.84344
G1 X132.767 Y126.571 E14.87348
G1 X132.263 Y127.321 E14.90354
G1 X131.695 Y128.023 E14.93357
G1 X131.067 Y128.672 E14.96361
G1 X130.385 Y129.263 E14.99362
G1 X129.652 Y129.791 E15.02367
G1 X128.876 Y130.253 E15.05371
G1 X128.062 Y130.643 E15.08373
G1 X127.216 Y130.961 E15.11379
G1 X126.346 Y131.202 E15.14382
G1 X125.458 Y131.366 E15.17385
G1 X124.375 Y131.457 E15.21
G1 X123.736 Y131.472 E15.23126
G1 X119.669 Y131.471 E15.36653
G1 X118.672 Y131.453 E15.39969
G1 X116.832 Y131.363 E15.46096
G1 X114.268 Y131.29 E15.54628
G1 X112.944 Y131.281 E15.59031
G1 X108.448 Y131.281 E15.73985
G1 X105.838 Y131.318 E15.82667
G1 X102.548 Y131.468 E15.93621
G1 X102.052 Y131.479 E15.95271
G1 X101.403 Y131.477 E15.9743
G1 X100.47 Y131.431 E16.00537
G1 X99.606 Y131.349 E16.03423
G1 X98.771 Y131.235 E16.06226
G1 X97.956 Y131.089 E16.0898
G1 X97.085 Y130.893 E16.11949
G1 X96.307 Y130.682 E16.1463
G1 X95.699 Y130.497 E16.16744
G1 X95.425 Y130.404 E16.17707
G1 X94.746 Y130.146 E16.20123
G1 X93.867 Y129.776 E16.23295
G1 X93.16 Y129.446 E16.2589
G1 X92.33 Y129.005 E16.29016
G1 X91.611 Y128.576 E16.318
G1 X90.872 Y128.089 E16.34744
G1 X90.206 Y127.607 E16.37478
G1 X89.513 Y127.053 E16.40429
G1 X87.639 Y125.443 E16.48647
G1 X84.736 Y123.083 E16.6109
G1 X83.81 Y122.353 E16.65012
G1 X83.273 Y121.899 E16.67351
G1 X82.933 Y121.591 E16.68877
G1 X82.291 Y120.956 E16.7188
G1 X81.708 Y120.266 E16.74884
G1 X81.228 Y119.601 E16.77612
G1 X80.743 Y118.839 E16.80616
G1 X80.324 Y118.033 E16.83638
G1 X79.981 Y117.244 E16.86499
G1 X79.843 Y116.89 E16.87763
G1 X79.552 Y116.035 E16.90767
G1 X79.282 Y114.845 E16.94826
G1 X79.218 Y114.457 E16.96133
G1 X79.111 Y113.56 E16.99138
G1 X79.083 Y112.95 E17.01169
G1 X79.07 Y111.977 E17.04406
G1 X79.077 Y108.536 E17.1585
G1 X79.164 Y107.229 E17.20207
G1 X79.237 Y106.673 E17.22072
G1 X79.394 Y105.784 E17.25075
G1 X79.629 Y104.912 E17.28079
G1 X80.05 Y103.812 E17.31996
G1 X80.227 Y103.419 E17.3343
G1 X80.852 Y102.243 E17.37859
G1 X81.019 Y101.973 E17.38915
G1 X81.528 Y101.226 E17.41921
G1 X81.888 Y100.773 E17.43846
G1 X82.126 Y100.49 E17.45076
G1 X82.79 Y99.773 E17.48326
G1 X83.92 Y98.665 E17.5359
G1 X85.749 Y96.8 E17.62278
G1 X86.802 Y95.676 E17.67401
G1 X88.012 Y94.362 E17.73342
G1 X88.601 Y93.773 E17.76112
G1 F2400 E16.96112
;MESH:OTL-BodyPad003.stl
G0 F9000 X92.31 Y105.665
G0 X91.904 Y107.065
;TYPE:WALL-INNER
G1 F2400 E17.76112
G1 F5167.5 X91.501 Y107.024 E17.7752
G1 F5307.1 X91.189 Y107.042 E17.78578
G1 F5346.5 X90.883 Y107.134 E17.79651
G1 F5320.2 X90.595 Y107.282 E17.80744
G1 F5373.1 X90.342 Y107.481 E17.8182
G1 F5427.1 X90.064 Y107.855 E17.83362
G1 F5333.3 X89.939 Y108.149 E17.84438
G1 X89.871 Y108.549 E17.85805
G1 F5386.5 X89.872 Y112.763 E17.99855
G1 X89.967 Y113.173 E18.01259
G1 F5440.8 X90.16 Y113.556 E18.02675
G1 F5400 X90.527 Y113.918 E18.04389
G1 F5359.8 X90.876 Y114.098 E18.05705
G1 F5400 X91.189 Y114.188 E18.06788
G1 F5333.3 X91.51 Y114.206 E18.07871
G1 X91.832 Y114.173 E18.08961
G1 F5281.2 X92.212 Y114.045 E18.10325
G1 F2400 E17.30325
G0 F9000 X92.759 Y113.704
G0 X93.849 Y114.466
G0 X97.223 Y114.282
G0 X101.955 Y117.337
G1 F2400 E18.10325
G1 F5400 X101.25 Y117.298 E18.12673
G1 X100.592 Y117.173 E18.14901
G1 X99.655 Y116.817 E18.18234
G1 X98.783 Y116.224 E18.21742
G1 X98.041 Y115.404 E18.2542
G1 X97.394 Y114.221 E18.29905
G1 X96.916 Y112.472 E18.35935
G1 X96.751 Y110.363 E18.42971
G1 X96.75 Y109.659 E18.45313
G1 X96.835 Y108.109 E18.50476
G1 X97.061 Y106.817 E18.54838
G1 X97.5 Y105.543 E18.5932
G1 X98.094 Y104.52 E18.63255
G1 X98.839 Y103.727 E18.66874
G1 X99.681 Y103.165 E18.70241
G1 X100.723 Y102.79 E18.73924
G1 X101.891 Y102.662 E18.77832
G1 X102.526 Y102.697 E18.79947
G1 X103.199 Y102.817 E18.82221
G1 X104.145 Y103.167 E18.85576
G1 X105.015 Y103.738 E18.89037
G1 X105.805 Y104.588 E18.92897
G1 X106.465 Y105.794 E18.97469
G1 X106.945 Y107.531 E19.03463
G1 X107.115 Y109.683 E19.10643
G1 X107.114 Y110.339 E19.12825
G1 X107.027 Y111.889 E19.17988
G1 X106.796 Y113.184 E19.22363
G1 X106.368 Y114.424 E19.26726
G1 X105.748 Y115.482 E19.30805
G1 X105.008 Y116.271 E19.34403
G1 X104.14 Y116.841 E19.37857
G1 X103.102 Y117.207 E19.41517
G1 X101.955 Y117.337 E19.45357
G1 F2400 E18.65357
G0 F9000 X101.964 Y117.437
G0 X103.143 Y117.383
G0 X104.572 Y120.115
G0 X106.745 Y120.481
G1 F2400 E19.45357
G1 F5400 X119.187 Y120.481 E19.86739
G1 X119.334 Y120.525 E19.87249
G1 X119.432 Y120.672 E19.87837
G1 X123.466 Y120.672 E20.01254
G1 X123.466 Y103.54 E20.58235
G1 X123.505 Y103.326 E20.58959
G1 X123.609 Y103.15 E20.59639
G1 X123.885 Y102.967 E20.6074
G1 X124.066 Y102.94 E20.61349
G1 X130.131 Y102.94 E20.81521
G1 X130.131 Y99.499 E20.92966
G1 X119.708 Y99.5 E21.27633
G1 X119.708 Y116.407 E21.83866
G1 X119.529 Y116.709 E21.85033
G1 X119.334 Y116.837 E21.85809
G1 X119.107 Y116.881 E21.86578
G1 X116.064 Y116.881 E21.96699
G1 X115.863 Y116.847 E21.97377
G1 X115.694 Y116.754 E21.98019
G1 X115.574 Y116.629 E21.98595
G1 X115.466 Y116.334 E21.9964
G1 X115.464 Y99.465 E22.55747
G1 X111.704 Y99.465 E22.68252
G1 X111.704 Y105.562 E22.88531
G1 X111.572 Y105.864 E22.89627
G1 X111.267 Y106.072 E22.90855
G1 X110.879 Y106.12 E22.92156
G1 X110.651 Y106.094 E22.92919
G1 X110.415 Y105.953 E22.93833
G1 X110.289 Y105.779 E22.94548
G1 X109.793 Y104.459 E22.99238
G1 X108.958 Y102.95 E23.04974
G1 X107.9 Y101.678 E23.10477
G1 X106.653 Y100.673 E23.15804
G1 X105.227 Y99.927 E23.21156
