;FLAVOR:Marlin
;TIME:1082
;Filament used: 0.487866m
;Layer height: 0.12
;MINX:78.27
;MINY:87.717
;MINZ:0.12
;MAXX:141.731
;MAXY:132.279
;MAXZ:3
;TARGET_MACHINE.NAME:Creality Ender-3 V3 SE
;Generated with Cura_SteamEngine 5.6.0
M104 S228
M105
M109 S228
M82 ;absolute extrusion mode
M220 S100 ;Reset Feedrate
M221 S100 ;Reset Flowrate

G28 ;Home

M420 S1; Enable mesh leveling

G92 E0 ;Reset Extruder
G1 Z2.0 F3000 ;Move Z Axis up
G1 X10.1 Y20 Z0.28 F5000.0 ;Move to start position
M109 S[material_print_temperature_layer_0]
G1 X10.1 Y145.0 Z0.28 F1500.0 E15 ;Draw the first line
G1 X10.4 Y145.0 Z0.28 F5000.0 ;Move to side a little
G1 X10.4 Y20 Z0.28 F1500.0 E30 ;Draw the second line
G92 E0  ;Reset Extruder
G1 E-1.0000 F1800 ;Retract a bit
G1 Z2.0 F3000 ;Move Z Axis up
G1 E0.0000 F1800 

G92 E0
G92 E0
G1 F2400 E-0.8
;LAYER_COUNT:25
;LAYER:0
M107
G0 F9000 X87.896 Y93.348 Z0.12
;TYPE:SKIRT
G1 F2400 E0
G1 F1800 X88.707 Y92.588 E0.02218
G1 X89.825 Y91.684 E0.05087
G1 X90.49 Y91.215 E0.06711
G1 X91.059 Y90.837 E0.08074
G1 X91.996 Y90.276 E0.10254
G1 X92.792 Y89.852 E0.12054
G1 X93.68 Y89.437 E0.1401
G1 X94.433 Y89.123 E0.15638
G1 X95.209 Y88.835 E0.1729
G1 X95.744 Y88.654 E0.18417
G1 X96.41 Y88.453 E0.19805
G1 X96.879 Y88.328 E0.20774
G1 X97.534 Y88.175 E0.22116
G1 X98.067 Y88.067 E0.23201
G1 X98.746 Y87.954 E0.24575
G1 X99.561 Y87.847 E0.26215
G1 X100.343 Y87.773 E0.27783
G1 X101.206 Y87.723 E0.29508
G1 X102.325 Y87.717 E0.31741
G1 X105.542 Y87.869 E0.38168
G1 X107.982 Y87.912 E0.43038
G1 X111.429 Y87.865 E0.49918
G1 X115.516 Y87.866 E0.58074
G1 X117.361 Y87.892 E0.61756
G1 X130.182 Y87.9 E0.87342
G1 X130.915 Y87.912 E0.88804
G1 X131.887 Y87.971 E0.90748
G1 X132.85 Y88.117 E0.92692
G1 X133.797 Y88.348 E0.94637
G1 X134.685 Y88.648 E0.96507
G1 X135.577 Y89.038 E0.9845
G1 X136.46 Y89.525 E1.00462
G1 X137.211 Y90.027 E1.02265
G1 X138.026 Y90.685 E1.04355
G1 X138.724 Y91.363 E1.06297
G1 X139.36 Y92.1 E1.0824
G1 X139.93 Y92.89 E1.10184
G1 X140.392 Y93.666 E1.11986
G1 X140.846 Y94.608 E1.14073
G1 X141.175 Y95.486 E1.15944
G1 X141.444 Y96.458 E1.17957
G1 X141.621 Y97.424 E1.19917
G1 X141.716 Y98.541 E1.22154
G1 X141.731 Y99.215 E1.23499
G1 X141.73 Y102.99 E1.31033
G1 X141.718 Y103.727 E1.32504
G1 X141.659 Y104.699 E1.34447
G1 X141.513 Y105.662 E1.36391
G1 X141.282 Y106.609 E1.38336
G1 X140.972 Y107.525 E1.40266
G1 X140.665 Y108.239 E1.41817
G1 X140.064 Y109.506 E1.44615
G1 X138.993 Y111.874 E1.49802
G1 X137.992 Y114.263 E1.54971
G1 X137.102 Y116.563 E1.59892
G1 X136.265 Y118.929 E1.64901
G1 X135.493 Y121.322 E1.69919
G1 X134.614 Y124.355 E1.7622
G1 X134.299 Y125.277 E1.78165
G1 X133.903 Y126.167 E1.80109
G1 X133.431 Y127.018 E1.82051
G1 X132.885 Y127.825 E1.83995
G1 X132.317 Y128.527 E1.85797
G1 X131.591 Y129.277 E1.8788
G1 X130.881 Y129.891 E1.89753
G1 X130.061 Y130.479 E1.91767
G1 X129.222 Y130.975 E1.93712
G1 X128.375 Y131.379 E1.95585
G1 X127.429 Y131.732 E1.976
G1 X126.525 Y131.981 E1.99471
G1 X125.524 Y132.164 E2.01502
G1 X124.393 Y132.257 E2.03766
G1 X123.736 Y132.272 E2.05078
G1 X119.655 Y132.271 E2.13222
G1 X118.632 Y132.253 E2.15264
G1 X116.792 Y132.163 E2.1894
G1 X114.246 Y132.09 E2.24023
G1 X112.938 Y132.081 E2.26633
G1 X108.46 Y132.081 E2.35569
G1 X105.874 Y132.118 E2.40731
G1 X102.566 Y132.268 E2.47339
G1 X102.05 Y132.279 E2.48369
G1 X101.363 Y132.277 E2.4974
G1 X100.43 Y132.231 E2.51604
G1 X99.498 Y132.141 E2.53473
G1 X98.629 Y132.023 E2.55223
G1 X97.78 Y131.869 E2.56945
G1 X96.875 Y131.665 E2.58796
G1 X96.075 Y131.448 E2.6045
G1 X95.441 Y131.255 E2.61773
G1 X95.141 Y131.152 E2.62406
G1 X94.436 Y130.884 E2.63911
G1 X93.557 Y130.514 E2.65814
G1 X92.78 Y130.15 E2.67526
G1 X91.929 Y129.697 E2.6945
G1 X91.59 Y129.499 E2.70234
G1 X91.014 Y129.138 E2.7159
G1 X90.307 Y128.666 E2.73287
G1 X89.729 Y128.25 E2.74708
G1 X88.991 Y127.659 E2.76595
G1 X87.117 Y126.049 E2.81525
G1 X84.243 Y123.712 E2.88917
G1 X83.327 Y122.992 E2.91242
G1 X82.779 Y122.529 E2.92674
G1 X82.486 Y122.264 E2.93462
G1 X81.843 Y121.63 E2.95264
G1 X81.323 Y121.031 E2.96847
G1 X81.012 Y120.645 E2.97837
G1 X80.437 Y119.86 E2.99778
G1 X79.953 Y119.061 E3.01643
G1 X79.592 Y118.346 E3.03241
G1 X79.348 Y117.811 E3.04414
G1 X79.009 Y116.974 E3.06217
G1 X78.704 Y115.978 E3.08295
G1 X78.525 Y115.139 E3.10007
G1 X78.444 Y114.672 E3.10953
G1 X78.323 Y113.714 E3.1288
G1 X78.29 Y113.025 E3.14257
G1 X78.27 Y111.799 E3.16704
G1 X78.279 Y108.481 E3.23325
G1 X78.37 Y107.124 E3.26039
G1 X78.449 Y106.533 E3.27229
G1 X78.622 Y105.575 E3.29172
G1 X78.869 Y104.664 E3.31055
G1 X79.32 Y103.484 E3.33576
G1 X79.497 Y103.091 E3.34437
G1 X80.158 Y101.845 E3.37251
G1 X80.357 Y101.523 E3.38007
G1 X80.866 Y100.776 E3.39811
G1 X81.276 Y100.258 E3.41129
G1 X81.54 Y99.946 E3.41945
G1 X82.23 Y99.201 E3.43971
G1 X83.36 Y98.093 E3.47129
G1 X85.177 Y96.24 E3.52308
G1 X86.211 Y95.137 E3.55325
G1 X87.28 Y93.976 E3.58475
G1 X87.896 Y93.348 E3.6023
G0 F9000 X88.17 Y93.64
G1 F1800 X88.981 Y92.88 E3.62448
G1 X90.056 Y92.011 E3.65207
G1 X90.712 Y91.548 E3.66809
G1 X91.265 Y91.18 E3.68135
G1 X92.184 Y90.629 E3.70273
G1 X92.962 Y90.214 E3.72033
G1 X93.834 Y89.806 E3.73954
G1 X94.572 Y89.498 E3.7555
G1 X95.337 Y89.214 E3.77178
G1 X95.86 Y89.037 E3.7828
G1 X96.513 Y88.84 E3.79641
G1 X96.982 Y88.715 E3.8061
G1 X97.613 Y88.567 E3.81903
G1 X98.133 Y88.462 E3.82962
G1 X98.798 Y88.351 E3.84307
G1 X99.599 Y88.245 E3.8592
G1 X100.366 Y88.172 E3.87457
G1 X101.208 Y88.123 E3.89141
G1 X102.306 Y88.117 E3.91332
G1 X105.523 Y88.269 E3.97759
G1 X107.98 Y88.312 E4.02663
G1 X111.429 Y88.265 E4.09546
G1 X115.51 Y88.266 E4.1769
G1 X117.355 Y88.292 E4.21373
G1 X130.176 Y88.3 E4.46958
G1 X130.891 Y88.311 E4.48385
G1 X131.828 Y88.367 E4.50259
G1 X132.756 Y88.506 E4.52131
G1 X133.669 Y88.727 E4.54006
G1 X134.525 Y89.015 E4.55808
G1 X135.417 Y89.405 E4.57751
G1 X136.238 Y89.858 E4.59622
G1 X136.989 Y90.36 E4.61425
G1 X137.748 Y90.972 E4.63371
G1 X138.422 Y91.625 E4.65243
G1 X139.036 Y92.334 E4.67115
G1 X139.586 Y93.095 E4.68989
G1 X140.048 Y93.871 E4.70791
G1 X140.471 Y94.748 E4.72734
G1 X140.8 Y95.626 E4.74605
G1 X141.051 Y96.531 E4.76479
G1 X141.222 Y97.458 E4.78361
G1 X141.317 Y98.575 E4.80598
G1 X141.331 Y99.215 E4.81875
G1 X141.33 Y102.984 E4.89397
G1 X141.319 Y103.703 E4.90832
G1 X141.263 Y104.64 E4.92705
G1 X141.124 Y105.568 E4.94577
G1 X140.903 Y106.481 E4.96452
G1 X140.604 Y107.367 E4.98318
G1 X140.303 Y108.068 E4.99841
G1 X139.703 Y109.335 E5.02638
G1 X138.624 Y111.719 E5.0786
G1 X137.623 Y114.108 E5.13029
G1 X136.729 Y116.419 E5.17974
G1 X135.884 Y118.806 E5.23028
G1 X135.112 Y121.199 E5.28045
G1 X134.235 Y124.226 E5.34334
G1 X133.933 Y125.115 E5.36208
G1 X133.553 Y125.973 E5.38081
G1 X133.099 Y126.794 E5.39953
G1 X132.574 Y127.573 E5.41828
G1 X132.006 Y128.275 E5.4363
G1 X131.329 Y128.974 E5.45572
G1 X130.619 Y129.588 E5.47445
G1 X129.857 Y130.135 E5.49317
G1 X129.049 Y130.614 E5.51191
G1 X128.235 Y131.004 E5.52993
G1 X127.323 Y131.346 E5.54936
G1 X126.419 Y131.595 E5.56807
G1 X125.491 Y131.765 E5.5869
G1 X124.384 Y131.857 E5.60907
G1 X123.736 Y131.872 E5.622
G1 X119.662 Y131.871 E5.70331
G1 X118.652 Y131.853 E5.72346
G1 X116.812 Y131.763 E5.76023
G1 X114.257 Y131.69 E5.81124
G1 X112.941 Y131.681 E5.8375
G1 X108.454 Y131.681 E5.92704
G1 X105.856 Y131.718 E5.97889
G1 X102.557 Y131.868 E6.0448
G1 X102.051 Y131.879 E6.0549
G1 X101.383 Y131.877 E6.06823
G1 X100.45 Y131.831 E6.08687
G1 X99.552 Y131.745 E6.10487
G1 X98.7 Y131.629 E6.12203
G1 X97.868 Y131.479 E6.1389
G1 X96.98 Y131.279 E6.15707
G1 X96.191 Y131.065 E6.17338
G1 X95.57 Y130.876 E6.18634
G1 X95.283 Y130.778 E6.19239
G1 X94.591 Y130.515 E6.20716
G1 X93.712 Y130.145 E6.22619
G1 X92.968 Y129.797 E6.24258
G1 X92.13 Y129.351 E6.26153
G1 X91.802 Y129.16 E6.2691
G1 X91.236 Y128.806 E6.28243
G1 X90.541 Y128.341 E6.29911
G1 X89.963 Y127.925 E6.31332
G1 X89.252 Y127.356 E6.3315
G1 X87.378 Y125.746 E6.3808
G1 X84.49 Y123.397 E6.45509
G1 X83.585 Y122.686 E6.47806
G1 X83.047 Y122.232 E6.49211
G1 X82.767 Y121.979 E6.49964
G1 X82.124 Y121.345 E6.51766
G1 X81.634 Y120.78 E6.53258
G1 X81.334 Y120.408 E6.54212
G1 X80.779 Y119.652 E6.56084
G1 X80.31 Y118.88 E6.57886
G1 X79.956 Y118.18 E6.59452
G1 X79.719 Y117.661 E6.6059
G1 X79.38 Y116.824 E6.62392
G1 X79.095 Y115.894 E6.64333
G1 X78.919 Y115.071 E6.66013
G1 X78.841 Y114.621 E6.66924
G1 X78.723 Y113.694 E6.68789
G1 X78.69 Y113.018 E6.7014
G1 X78.67 Y111.8 E6.72571
G1 X78.678 Y108.508 E6.7914
G1 X78.767 Y107.177 E6.81802
G1 X78.843 Y106.603 E6.82958
G1 X79.008 Y105.68 E6.84829
G1 X79.255 Y104.769 E6.86713
G1 X79.685 Y103.648 E6.89109
G1 X79.862 Y103.255 E6.89969
G1 X80.499 Y102.055 E6.9268
G1 X80.688 Y101.748 E6.934
G1 X81.197 Y101.001 E6.95203
G1 X81.582 Y100.516 E6.96439
G1 X81.833 Y100.218 E6.97217
G1 X82.51 Y99.487 E6.99205
G1 X83.64 Y98.379 E7.02363
G1 X85.463 Y96.52 E7.07559
G1 X86.503 Y95.41 E7.10595
G1 X87.566 Y94.256 E7.13726
G1 X88.17 Y93.64 E7.15447
G0 F9000 X88.444 Y93.932
G1 F1800 X89.255 Y93.172 E7.17665
G1 X90.287 Y92.338 E7.20313
G1 X90.943 Y91.875 E7.21916
G1 X91.471 Y91.523 E7.23182
G1 X92.372 Y90.982 E7.25279
G1 X93.132 Y90.576 E7.26999
G1 X93.988 Y90.175 E7.28885
G1 X94.711 Y89.873 E7.30449
G1 X95.465 Y89.593 E7.32054
G1 X95.976 Y89.42 E7.3313
G1 X96.616 Y89.226 E7.34465
G1 X97.073 Y89.104 E7.35409
G1 X97.692 Y88.959 E7.36678
G1 X98.199 Y88.857 E7.3771
G1 X98.864 Y88.746 E7.39055
G1 X99.637 Y88.643 E7.40611
G1 X100.389 Y88.571 E7.42119
G1 X101.21 Y88.523 E7.4376
G1 X102.287 Y88.517 E7.45909
G1 X105.504 Y88.669 E7.52337
G1 X107.978 Y88.712 E7.57274
G1 X111.429 Y88.665 E7.64162
G1 X115.504 Y88.666 E7.72294
G1 X117.349 Y88.692 E7.75976
G1 X130.17 Y88.7 E8.01562
G1 X130.868 Y88.71 E8.02955
G1 X131.77 Y88.763 E8.04758
G1 X132.663 Y88.895 E8.0656
G1 X133.541 Y89.106 E8.08362
G1 X134.397 Y89.394 E8.10164
G1 X135.224 Y89.756 E8.11966
G1 X136.016 Y90.191 E8.13769
G1 X136.767 Y90.693 E8.15571
G1 X137.47 Y91.26 E8.17374
G1 X138.12 Y91.887 E8.19176
G1 X138.712 Y92.569 E8.20978
G1 X139.242 Y93.3 E8.2278
G1 X139.704 Y94.076 E8.24582
G1 X140.097 Y94.889 E8.26384
G1 X140.415 Y95.734 E8.28186
G1 X140.658 Y96.604 E8.29989
G1 X140.823 Y97.492 E8.31791
G1 X140.918 Y98.609 E8.34028
G1 X140.931 Y99.215 E8.35238
G1 X140.93 Y102.978 E8.42748
G1 X140.92 Y103.68 E8.44149
G1 X140.867 Y104.582 E8.45952
G1 X140.735 Y105.475 E8.47753
G1 X140.524 Y106.353 E8.49555
G1 X140.236 Y107.209 E8.51358
G1 X139.941 Y107.897 E8.52851
G1 X139.342 Y109.164 E8.55648
G1 X138.255 Y111.564 E8.60906
G1 X137.254 Y113.953 E8.66075
G1 X136.356 Y116.275 E8.71043
G1 X135.507 Y118.672 E8.76118
G1 X134.731 Y121.076 E8.81159
G1 X133.856 Y124.098 E8.87438
G1 X133.567 Y124.954 E8.89241
G1 X133.203 Y125.78 E8.91042
G1 X132.767 Y126.571 E8.92844
G1 X132.263 Y127.321 E8.94648
G1 X131.695 Y128.023 E8.9645
G1 X131.067 Y128.672 E8.98252
G1 X130.385 Y129.263 E9.00053
G1 X129.652 Y129.791 E9.01856
G1 X128.876 Y130.253 E9.03658
G1 X128.062 Y130.643 E9.05459
G1 X127.216 Y130.961 E9.07263
G1 X126.346 Y131.202 E9.09064
G1 X125.458 Y131.366 E9.10866
G1 X124.375 Y131.457 E9.13035
G1 X123.736 Y131.472 E9.14311
G1 X119.669 Y131.471 E9.22427
G1 X118.672 Y131.453 E9.24417
G1 X116.832 Y131.363 E9.28093
G1 X114.268 Y131.29 E9.33212
G1 X112.944 Y131.281 E9.35854
G1 X108.448 Y131.281 E9.44826
G1 X105.838 Y131.318 E9.50036
G1 X102.548 Y131.468 E9.56608
G1 X102.052 Y131.479 E9.57598
G1 X101.403 Y131.477 E9.58893
G1 X100.47 Y131.431 E9.60757
G1 X99.606 Y131.349 E9.62489
G1 X98.771 Y131.235 E9.64171
G1 X97.956 Y131.089 E9.65823
G1 X97.085 Y130.893 E9.67605
G1 X96.307 Y130.682 E9.69214
G1 X95.699 Y130.497 E9.70482
G1 X95.425 Y130.404 E9.71059
G1 X94.746 Y130.146 E9.72509
G1 X93.867 Y129.776 E9.74412
G1 X93.156 Y129.444 E9.75978
G1 X92.331 Y129.005 E9.77843
G1 X92.014 Y128.821 E9.78574
G1 X91.459 Y128.474 E9.79881
G1 X90.775 Y128.016 E9.81523
G1 X90.197 Y127.6 E9.82945
G1 X89.513 Y127.053 E9.84692
G1 X87.639 Y125.443 E9.89623
G1 X84.742 Y123.087 E9.97074
G1 X83.843 Y122.38 E9.99357
G1 X83.315 Y121.935 E10.00735
G1 X83.048 Y121.694 E10.01453
G1 X82.405 Y121.06 E10.03255
G1 X81.945 Y120.529 E10.04657
G1 X81.656 Y120.171 E10.05575
G1 X81.121 Y119.444 E10.07376
G1 X80.652 Y118.672 E10.09179
G1 X80.32 Y118.013 E10.10651
G1 X80.09 Y117.511 E10.11753
G1 X79.751 Y116.674 E10.13555
G1 X79.486 Y115.81 E10.15359
G1 X79.313 Y115.003 E10.17006
G1 X79.238 Y114.57 E10.17883
G1 X79.123 Y113.674 E10.19686
G1 X79.09 Y113.011 E10.2101
G1 X79.07 Y111.801 E10.23425
G1 X79.077 Y108.535 E10.29943
G1 X79.164 Y107.229 E10.32555
G1 X79.237 Y106.673 E10.33674
G1 X79.394 Y105.784 E10.35476
G1 X79.629 Y104.912 E10.37278
G1 X80.05 Y103.812 E10.39628
G1 X80.227 Y103.419 E10.40489
G1 X80.852 Y102.243 E10.43146
G1 X81.019 Y101.973 E10.4378
G1 X81.528 Y101.226 E10.45584
G1 X81.888 Y100.773 E10.46738
G1 X82.126 Y100.49 E10.47476
G1 X82.79 Y99.773 E10.49426
G1 X83.92 Y98.665 E10.52585
G1 X85.749 Y96.8 E10.57798
G1 X86.795 Y95.683 E10.60851
G1 X87.851 Y94.536 E10.63963
G1 X88.444 Y93.932 E10.65652
G1 F2400 E9.85652
;MESH:OTL-BodyPad003.stl
G0 F9000 X91.411 Y105.758
G0 X91.501 Y106.838
G0 X92.614 Y107.19
G0 X91.97 Y107.077
;TYPE:WALL-INNER
G1 F2400 E10.65652
G1 F5070.4 X91.501 Y107.027 E10.66654
G1 F5268.3 X91.193 Y107.042 E10.67285
G1 F5281.2 X90.875 Y107.132 E10.67959
G1 F5307.1 X90.522 Y107.328 E10.68779
G1 F5333.3 X90.111 Y107.742 E10.69958
G1 F5217.4 X89.94 Y108.15 E10.70872
G1 F5346.5 X89.871 Y108.44 E10.71473
G1 F5386.5 X89.872 Y112.808 E10.80211
G1 F5230 X89.977 Y113.166 E10.8098
G1 F5242.7 X90.101 Y113.448 E10.81613
G1 F5346.5 X90.293 Y113.696 E10.82245
G1 F5359.8 X90.597 Y113.96 E10.83055
G1 F5230 X90.879 Y114.088 E10.83693
G1 F5281.2 X91.189 Y114.187 E10.84357
G1 F5386.5 X91.51 Y114.21 E10.85001
G1 F5320.2 X91.829 Y114.168 E10.85653
G1 F5281.2 X92.193 Y114.056 E10.8643
G1 F2400 E10.0643
G0 F9000 X92.891 Y113.796
G0 X93.747 Y114.015
G0 X94.558 Y115.227
G0 X96.85 Y114.43
G0 X98.617 Y116.404
G0 X99.528 Y117.026
G0 X100.322 Y117.33
G0 X101.937 Y117.741
G1 F2400 E10.8643
G1 F5400 X101.203 Y117.695 E10.87897
G1 X100.453 Y117.553 E10.89421
G1 X99.438 Y117.161 E10.91592
G1 X98.496 Y116.511 E10.93876
G1 X97.687 Y115.605 E10.963
G1 X97.017 Y114.361 E10.9912
G1 X96.522 Y112.564 E11.02839
G1 X96.352 Y110.394 E11.07183
G1 X96.351 Y109.638 E11.08692
G1 X96.432 Y108.103 E11.11759
G1 X96.68 Y106.704 E11.14595
G1 X97.121 Y105.403 E11.17336
G1 X97.773 Y104.278 E11.19931
G1 X98.571 Y103.422 E11.22266
G1 X99.523 Y102.796 E11.2454
G1 X100.621 Y102.402 E11.26868
G1 X101.876 Y102.262 E11.29388
G1 X102.562 Y102.298 E11.30759
G1 X103.311 Y102.432 E11.32277
G1 X104.302 Y102.793 E11.34382
G1 X105.297 Y103.446 E11.36757
G1 X106.135 Y104.357 E11.39227
G1 X106.837 Y105.64 E11.42146
G1 X107.339 Y107.463 E11.45919
G1 X107.512 Y109.604 E11.50206
G1 X107.513 Y110.36 E11.51714
G1 X107.43 Y111.907 E11.54806
G1 X107.185 Y113.283 E11.57595
G1 X106.723 Y114.62 E11.60418
G1 X106.067 Y115.724 E11.62981
G1 X105.241 Y116.598 E11.65381
G1 X104.319 Y117.203 E11.67581
G1 X103.192 Y117.597 E11.69964
G1 X101.937 Y117.741 E11.72485
G0 F9000 X101.955 Y117.337
G1 F5400 X101.25 Y117.298 E11.73894
G1 X100.592 Y117.173 E11.75231
G1 X99.655 Y116.817 E11.77231
G1 X98.765 Y116.213 E11.79377
G1 X98.022 Y115.383 E11.816
G1 X97.393 Y114.218 E11.84242
G1 X96.915 Y112.466 E11.87867
G1 X96.751 Y110.363 E11.92076
G1 X96.75 Y109.659 E11.93481
G1 X96.835 Y108.109 E11.96579
G1 X97.061 Y106.818 E11.99194
G1 X97.493 Y105.551 E12.01866
G1 X98.094 Y104.52 E12.04247
G1 X98.839 Y103.727 E12.06419
G1 X99.697 Y103.158 E12.08473
G1 X100.718 Y102.792 E12.10638
G1 X101.891 Y102.662 E12.12993
G1 X102.526 Y102.697 E12.14262
G1 X103.199 Y102.817 E12.15626
G1 X104.145 Y103.167 E12.17639
G1 X105.015 Y103.738 E12.19716
G1 X105.805 Y104.588 E12.22031
G1 X106.465 Y105.794 E12.24775
G1 X106.945 Y107.531 E12.28371
G1 X107.115 Y109.683 E12.32679
G1 X107.114 Y110.339 E12.33988
G1 X107.027 Y111.889 E12.37086
G1 X106.796 Y113.184 E12.39712
G1 X106.368 Y114.424 E12.42329
G1 X105.748 Y115.482 E12.44777
G1 X105.008 Y116.271 E12.46935
G1 X104.14 Y116.841 E12.49007
G1 X103.102 Y117.207 E12.51204
G1 X101.955 Y117.337 E12.53508
G1 F2400 E11.73508
G0 F9000 X101.986 Y117.635
G0 X104.4 Y117.366
